( pcb2gcode 2.3.0 )
( Software-independent Gcode )

G94 ( Millimeters per minute feed rate. )
G21 ( Units == Millimeters. )

G90 ( Absolute coordinates. )
G00 S10000 ( RPM spindle speed. )
G64 P0.01000 ( set maximum deviation from commanded toolpath )
G01 F100.00000 ( Feedrate. )


G00 Z10.00000 (Retract to tool change height)
T0
M5      (Spindle stop.)
G04 P1.00000 (Wait for spindle to stop)
(MSG, Change tool bit to mill diameter 0.20000mm)
M6      (Tool change.)
M0      (Temporary machine stop.)
M3 ( Spindle on clockwise. )
G04 P1.00000 (Wait for spindle to get up to speed)
G04 P0 ( dwell for no time -- G64 should not smooth over this point )
G00 Z2.00000 ( retract )

G00 X87.54996 Y6.29605 ( rapid move to begin. )
G01 F50.00000
( Mill infeed pass 1/1 )
G01 Z-0.20000
G04 P0 ( dwell for no time -- G64 should not smooth over this point )
G01 F100.00000
G01 X87.54996 Y6.29605
G01 X87.55760 Y6.29399
G01 X87.57498 Y6.29247
G01 X87.72420 Y6.29247
G01 X87.73464 Y6.29303
G01 X87.74498 Y6.29468
G01 X88.08580 Y6.36712
G01 X88.09591 Y6.36981
G01 X88.10568 Y6.37357
G01 X88.42400 Y6.51530
G01 X88.43332 Y6.52005
G01 X88.44211 Y6.52574
G01 X88.72397 Y6.73054
G01 X88.73210 Y6.73715
G01 X88.73949 Y6.74454
G01 X88.97264 Y7.00347
G01 X88.97924 Y7.01159
G01 X88.98493 Y7.02038
G01 X89.15915 Y7.32213
G01 X89.16390 Y7.33146
G01 X89.16766 Y7.34123
G01 X89.27533 Y7.67260
G01 X89.27802 Y7.68271
G01 X89.27967 Y7.69305
G01 X89.31345 Y8.01456
G01 X89.31368 Y8.03316
G01 X89.31071 Y8.05005
G01 X89.21401 Y8.05005
G01 X87.57498 Y8.05005
G01 X87.54996 Y8.05005
G01 X87.52496 Y8.05005
G01 X85.88593 Y8.05005
G01 X85.78923 Y8.05005
G01 X85.78626 Y8.06691
G01 X85.78649 Y8.08551
G01 X85.82027 Y8.40699
G01 X85.82192 Y8.41733
G01 X85.82461 Y8.42744
G01 X85.93228 Y8.75881
G01 X85.93604 Y8.76859
G01 X85.94079 Y8.77791
G01 X86.11501 Y9.07966
G01 X86.12070 Y9.08845
G01 X86.12730 Y9.09658
G01 X86.36045 Y9.35551
G01 X86.36784 Y9.36290
G01 X86.37597 Y9.36950
G01 X86.65786 Y9.57430
G01 X86.66665 Y9.57999
G01 X86.67597 Y9.58474
G01 X86.99426 Y9.72647
G01 X87.00404 Y9.73023
G01 X87.01414 Y9.73292
G01 X87.35496 Y9.80537
G01 X87.36530 Y9.80702
G01 X87.37576 Y9.80757
G01 X87.52496 Y9.80757
G01 X87.54447 Y9.80564
G01 X87.54996 Y9.80399
G01 X87.54996 Y9.70755
G01 X87.54996 Y8.07504
G01 X87.54996 Y8.05005
G01 X87.54996 Y8.02503
G01 X87.54996 Y6.39247
G01 X87.54996 Y6.29605
G01 X87.54447 Y6.29440
G01 X87.52496 Y6.29247
G01 X87.37576 Y6.29247
G01 X87.36530 Y6.29303
G01 X87.35496 Y6.29468
G01 X87.01414 Y6.36712
G01 X87.00404 Y6.36981
G01 X86.99426 Y6.37357
G01 X86.67597 Y6.51530
G01 X86.66665 Y6.52005
G01 X86.65786 Y6.52574
G01 X86.37597 Y6.73054
G01 X86.36784 Y6.73715
G01 X86.36045 Y6.74454
G01 X86.12730 Y7.00347
G01 X86.12070 Y7.01159
G01 X86.11501 Y7.02038
G01 X85.94079 Y7.32213
G01 X85.93604 Y7.33146
G01 X85.93228 Y7.34123
G01 X85.82461 Y7.67260
G01 X85.82192 Y7.68271
G01 X85.82027 Y7.69305
G01 X85.78649 Y8.01456
G01 X85.78626 Y8.03316
G01 X85.78923 Y8.05005
G01 X85.78626 Y8.06691
G01 X85.78649 Y8.08551
G01 X85.82027 Y8.40699
G01 X85.82192 Y8.41733
G01 X85.82461 Y8.42744
G01 X85.93228 Y8.75881
G01 X85.93604 Y8.76859
G01 X85.94079 Y8.77791
G01 X86.11501 Y9.07966
G01 X86.12070 Y9.08845
G01 X86.12730 Y9.09658
G01 X86.36045 Y9.35551
G01 X86.36784 Y9.36290
G01 X86.37597 Y9.36950
G01 X86.65786 Y9.57430
G01 X86.66665 Y9.57999
G01 X86.67597 Y9.58474
G01 X86.99426 Y9.72647
G01 X87.00404 Y9.73023
G01 X87.01414 Y9.73292
G01 X87.35496 Y9.80537
G01 X87.36530 Y9.80702
G01 X87.37576 Y9.80757
G01 X87.52496 Y9.80757
G01 X87.54447 Y9.80564
G01 X87.54996 Y9.80399
G01 X87.55760 Y9.80605
G01 X87.57498 Y9.80757
G01 X87.72420 Y9.80757
G01 X87.73464 Y9.80702
G01 X87.74498 Y9.80537
G01 X88.08580 Y9.73292
G01 X88.09591 Y9.73023
G01 X88.10568 Y9.72647
G01 X88.42400 Y9.58474
G01 X88.43332 Y9.57999
G01 X88.44211 Y9.57430
G01 X88.72397 Y9.36950
G01 X88.73210 Y9.36290
G01 X88.73949 Y9.35551
G01 X88.97264 Y9.09658
G01 X88.97924 Y9.08845
G01 X88.98493 Y9.07966
G01 X89.15915 Y8.77791
G01 X89.16390 Y8.76859
G01 X89.16766 Y8.75881
G01 X89.27533 Y8.42744
G01 X89.27802 Y8.41733
G01 X89.27967 Y8.40699
G01 X89.31345 Y8.08551
G01 X89.31368 Y8.06691
G01 X89.31071 Y8.05005
G04 P0 ( dwell for no time -- G64 should not smooth over this point )
G00 Z2.00000 ( retract )

G00 X100.63210 Y33.18502 ( rapid move to begin. )
G01 F50.00000
( Mill infeed pass 1/1 )
G01 Z-0.20000
G04 P0 ( dwell for no time -- G64 should not smooth over this point )
G01 F100.00000
G01 X100.63210 Y33.18502
G01 X100.56141 Y33.24865
G01 X100.55951 Y33.25048
G01 X98.81763 Y34.99239
G01 X98.79995 Y35.01004
G01 X98.78227 Y35.02772
G01 X97.04039 Y36.76960
G01 X97.03848 Y36.77140
G01 X96.96782 Y36.83503
G01 X96.96162 Y36.83107
G01 X96.94842 Y36.81882
G01 X96.70313 Y36.54641
G01 X96.69652 Y36.53828
G01 X96.69083 Y36.52949
G01 X96.42952 Y36.07686
G01 X96.42477 Y36.06754
G01 X96.42101 Y36.05776
G01 X96.25949 Y35.56071
G01 X96.25680 Y35.55060
G01 X96.25515 Y35.54026
G01 X96.20051 Y35.02048
G01 X96.19995 Y35.01001
G01 X96.20051 Y34.99957
G01 X96.25515 Y34.47979
G01 X96.25680 Y34.46945
G01 X96.25949 Y34.45934
G01 X96.42101 Y33.96229
G01 X96.42477 Y33.95251
G01 X96.42952 Y33.94319
G01 X96.69083 Y33.49056
G01 X96.69652 Y33.48177
G01 X96.70313 Y33.47364
G01 X96.94839 Y33.20123
G01 X96.96160 Y33.18899
G01 X96.96780 Y33.18502
G01 X96.97061 Y33.17923
G01 X96.98192 Y33.16399
G01 X97.05283 Y33.08525
G01 X97.06023 Y33.07786
G01 X97.06835 Y33.07126
G01 X97.49119 Y32.76404
G01 X97.49998 Y32.75835
G01 X97.50930 Y32.75360
G01 X97.98674 Y32.54103
G01 X97.99652 Y32.53727
G01 X98.00663 Y32.53458
G01 X98.51786 Y32.42592
G01 X98.52819 Y32.42427
G01 X98.53866 Y32.42371
G01 X99.06131 Y32.42371
G01 X99.07175 Y32.42427
G01 X99.08209 Y32.42592
G01 X99.59332 Y32.53458
G01 X99.60343 Y32.53727
G01 X99.61321 Y32.54103
G01 X100.09065 Y32.75360
G01 X100.09997 Y32.75835
G01 X100.10876 Y32.76404
G01 X100.53159 Y33.07126
G01 X100.53972 Y33.07786
G01 X100.54711 Y33.08525
G01 X100.61803 Y33.16402
G01 X100.62933 Y33.17923
G01 X100.63210 Y33.18502
G01 X100.63832 Y33.18899
G01 X100.65153 Y33.20123
G01 X100.89682 Y33.47364
G01 X100.90342 Y33.48177
G01 X100.90911 Y33.49056
G01 X101.17043 Y33.94319
G01 X101.17518 Y33.95251
G01 X101.17894 Y33.96229
G01 X101.34046 Y34.45934
G01 X101.34315 Y34.46945
G01 X101.34480 Y34.47979
G01 X101.39943 Y34.99957
G01 X101.39999 Y35.01001
G01 X101.39943 Y35.02048
G01 X101.34480 Y35.54026
G01 X101.34315 Y35.55060
G01 X101.34046 Y35.56071
G01 X101.17894 Y36.05776
G01 X101.17518 Y36.06754
G01 X101.17043 Y36.07686
G01 X100.90911 Y36.52949
G01 X100.90342 Y36.53828
G01 X100.89682 Y36.54641
G01 X100.65153 Y36.81882
G01 X100.63832 Y36.83107
G01 X100.63210 Y36.83503
G01 X100.62933 Y36.84079
G01 X100.61803 Y36.85601
G01 X100.54714 Y36.93477
G01 X100.53972 Y36.94219
G01 X100.53159 Y36.94880
G01 X100.10876 Y37.25601
G01 X100.09997 Y37.26170
G01 X100.09065 Y37.26645
G01 X99.61321 Y37.47902
G01 X99.60343 Y37.48278
G01 X99.59332 Y37.48547
G01 X99.08209 Y37.59413
G01 X99.07175 Y37.59578
G01 X99.06131 Y37.59634
G01 X98.53866 Y37.59634
G01 X98.52819 Y37.59578
G01 X98.51786 Y37.59413
G01 X98.00663 Y37.48547
G01 X97.99652 Y37.48278
G01 X97.98674 Y37.47902
G01 X97.50930 Y37.26645
G01 X97.49998 Y37.26170
G01 X97.49119 Y37.25601
G01 X97.06835 Y36.94880
G01 X97.06023 Y36.94219
G01 X97.05283 Y36.93480
G01 X96.98192 Y36.85603
G01 X96.97061 Y36.84082
G01 X96.96782 Y36.83503
G01 X96.96162 Y36.83107
G01 X96.94842 Y36.81882
G01 X96.70313 Y36.54641
G01 X96.69652 Y36.53828
G01 X96.69083 Y36.52949
G01 X96.42952 Y36.07686
G01 X96.42477 Y36.06754
G01 X96.42101 Y36.05776
G01 X96.25949 Y35.56071
G01 X96.25680 Y35.55060
G01 X96.25515 Y35.54026
G01 X96.20051 Y35.02048
G01 X96.19995 Y35.01001
G01 X96.20051 Y34.99957
G01 X96.25515 Y34.47979
G01 X96.25680 Y34.46945
G01 X96.25949 Y34.45934
G01 X96.42101 Y33.96229
G01 X96.42477 Y33.95251
G01 X96.42952 Y33.94319
G01 X96.69083 Y33.49056
G01 X96.69652 Y33.48177
G01 X96.70313 Y33.47364
G01 X96.94839 Y33.20123
G01 X96.96160 Y33.18899
G01 X96.96780 Y33.18502
G01 X97.03848 Y33.24865
G01 X97.04036 Y33.25045
G01 X98.78227 Y34.99236
G01 X98.79995 Y35.01004
G01 X98.81763 Y35.02772
G01 X100.55953 Y36.76960
G01 X100.56141 Y36.77140
G01 X100.63210 Y36.83503

G04 P0 ( dwell for no time -- G64 should not smooth over this point )
G00 Z10.000000 ( retract )

M5 ( Spindle off. )
G04 P1.000000
M9 ( Coolant off. )
M2 ( Program end. )

