( pcb2gcode 2.3.0 )
( Software-independent Gcode )

G94 ( Millimeters per minute feed rate. )
G21 ( Units == Millimeters. )

G90 ( Absolute coordinates. )
G00 S10000 ( RPM spindle speed. )
G64 P0.01000 ( set maximum deviation from commanded toolpath )
G01 F600.00000 ( Feedrate. )


G00 Z10.00000 (Retract to tool change height)
T0
M5      (Spindle stop.)
G04 P1.00000 (Wait for spindle to stop)
(MSG, Change tool bit to cutter diameter 3.00000mm)
M6      (Tool change.)
M0      (Temporary machine stop.)
M3 ( Spindle on clockwise. )
G04 P1.00000 (Wait for spindle to get up to speed)
G04 P0 ( dwell for no time -- G64 should not smooth over this point )
G00 Z2.00000 ( retract )

G00 X87.54996 Y4.89471 ( rapid move to begin. )
G01 Z-2.00000 F60.00000 ( plunge. )
G04 P0 ( dwell for no time -- G64 should not smooth over this point )
G01 F600.00000
G00 Z-0.60000
G01 X87.54996 Y4.89471
G01 X87.54996 Y6.39247
G01 X87.54996 Y7.39359
G01 Z-2.00000 F60.00000
G01 F600.00000
G01 X87.54996 Y8.02503
G01 X87.54996 Y8.05005
G01 X87.54996 Y8.07504
G01 X87.54996 Y8.70633
G00 Z-0.60000
G01 X87.54996 Y9.70755
G01 X87.54996 Y11.20511
G01 X87.54996 Y11.20511
G04 P0 ( dwell for no time -- G64 should not smooth over this point )
G00 Z2.00000 ( retract )

G00 X95.92645 Y37.77270 ( rapid move to begin. )
G01 Z-2.00000 F60.00000 ( plunge. )
G04 P0 ( dwell for no time -- G64 should not smooth over this point )
G01 F600.00000
G00 Z-0.60000
G01 X95.92645 Y37.77270
G01 X97.03848 Y36.77140
G01 X97.04039 Y36.76960
G01 X97.74691 Y36.06307
G01 Z-2.00000 F60.00000
G01 F600.00000
G01 X98.78227 Y35.02772
G01 X98.79995 Y35.01004
G01 X98.81763 Y34.99239
G01 X99.85298 Y33.95702
G00 Z-0.60000
G01 X100.55951 Y33.25048
G01 X100.56141 Y33.24865
G01 X101.67345 Y32.24746
G01 X101.67345 Y32.24746
G04 P0 ( dwell for no time -- G64 should not smooth over this point )
G00 Z2.00000 ( retract )

G00 X84.39203 Y8.05005 ( rapid move to begin. )
G01 Z-2.00000 F60.00000 ( plunge. )
G04 P0 ( dwell for no time -- G64 should not smooth over this point )
G01 F600.00000
G00 Z-0.60000
G01 X84.39203 Y8.05005
G01 X84.39413 Y7.86823
G01 X84.42794 Y7.54670
G01 X84.45250 Y7.39163
G01 X84.49314 Y7.23997
G01 X84.60081 Y6.90860
G01 X84.65708 Y6.76201
G01 X84.72835 Y6.62214
G01 X84.90257 Y6.32038
G01 X84.98809 Y6.18868
G01 X85.08692 Y6.06666
G01 X85.21377 Y5.92578
G01 Z-2.00000 F60.00000
G01 F600.00000
G01 X85.32007 Y5.80774
G01 X85.43106 Y5.69671
G01 X85.55309 Y5.59793
G01 X85.83498 Y5.39313
G01 X85.96662 Y5.30763
G01 X86.04996 Y5.26517
G01 X86.10648 Y5.23636
G01 X86.42476 Y5.09463
G01 X86.57137 Y5.03834
G01 X86.72309 Y4.99770
G01 X87.06390 Y4.92526
G01 X87.21897 Y4.90070
G01 X87.37576 Y4.89247
G01 X87.52496 Y4.89247
G01 X87.54996 Y4.89471
G01 X87.57498 Y4.89247
G01 X87.72420 Y4.89247
G01 X87.88097 Y4.90070
G01 X88.03604 Y4.92526
G01 X88.37685 Y4.99770
G01 X88.52854 Y5.03834
G01 X88.67515 Y5.09463
G01 X88.99347 Y5.23636
G01 X89.13337 Y5.30763
G01 X89.26504 Y5.39316
G01 X89.54691 Y5.59796
G01 X89.66888 Y5.69674
G01 X89.77987 Y5.80774
G01 X90.01302 Y6.06666
G01 X90.11185 Y6.18868
G01 X90.19737 Y6.32038
G01 X90.37159 Y6.62214
G01 X90.44287 Y6.76201
G01 X90.49913 Y6.90860
G01 X90.49948 Y6.90970
G00 Z-0.60000
G01 X90.60680 Y7.23997
G01 X90.64744 Y7.39163
G01 X90.67200 Y7.54670
G01 X90.70581 Y7.86823
G01 X90.70791 Y8.05005
G01 X90.70581 Y8.23186
G01 X90.67200 Y8.55335
G01 X90.64744 Y8.70842
G01 X90.60680 Y8.86008
G01 X90.49913 Y9.19145
G01 X90.44287 Y9.33803
G01 X90.37159 Y9.47791
G01 X90.19737 Y9.77966
G01 X90.11185 Y9.91136
G01 X90.01302 Y10.03338
G01 X89.88617 Y10.17426
G01 Z-2.00000 F60.00000
G01 F600.00000
G01 X89.77987 Y10.29231
G01 X89.66888 Y10.40331
G01 X89.54691 Y10.50209
G01 X89.26504 Y10.70689
G01 X89.13337 Y10.79241
G01 X88.99347 Y10.86368
G01 X88.67515 Y11.00541
G01 X88.52854 Y11.06170
G01 X88.37685 Y11.10234
G01 X88.03604 Y11.17478
G01 X87.88097 Y11.19934
G01 X87.72420 Y11.20757
G01 X87.57498 Y11.20757
G01 X87.54996 Y11.20511
G01 X87.52496 Y11.20757
G01 X87.37576 Y11.20757
G01 X87.21897 Y11.19934
G01 X87.06390 Y11.17478
G01 X86.72309 Y11.10234
G01 X86.57137 Y11.06170
G01 X86.42476 Y11.00541
G01 X86.10648 Y10.86368
G01 X85.96662 Y10.79241
G01 X85.83498 Y10.70691
G01 X85.55309 Y10.50211
G01 X85.43106 Y10.40333
G01 X85.32007 Y10.29231
G01 X85.08692 Y10.03338
G01 X84.98809 Y9.91136
G01 X84.90257 Y9.77966
G01 X84.77000 Y9.55004
G01 X84.72835 Y9.47791
G01 X84.65708 Y9.33803
G01 X84.60081 Y9.19145
G01 X84.49314 Y8.86008
G01 X84.45250 Y8.70842
G01 X84.42794 Y8.55335
G01 X84.39413 Y8.23186
G01 X84.39203 Y8.05005
G00 Z-0.60000
G01 X85.88593 Y8.05005
G01 Z-2.00000 F60.00000
G01 F600.00000
G01 X87.52496 Y8.05005
G01 X87.54996 Y8.05005
G01 X87.57498 Y8.05005
G01 X89.21401 Y8.05005
G01 X90.70791 Y8.05005
G04 P0 ( dwell for no time -- G64 should not smooth over this point )
G00 Z2.00000 ( retract )

G00 X95.92640 Y32.24741 ( rapid move to begin. )
G01 Z-2.00000 F60.00000 ( plunge. )
G04 P0 ( dwell for no time -- G64 should not smooth over this point )
G01 F600.00000
G00 Z-0.60000
G01 X95.90795 Y32.26448
G01 Z-2.00000 F60.00000
G01 F600.00000
G01 X95.66267 Y32.53692
G01 X95.56389 Y32.65891
G01 X95.47839 Y32.79059
G01 X95.21707 Y33.24322
G01 X95.14580 Y33.38307
G01 X95.09447 Y33.51677
G01 X95.08954 Y33.52963
G01 X94.92802 Y34.02668
G01 X94.88738 Y34.17834
G01 X94.86282 Y34.33343
G01 X94.80819 Y34.85322
G01 X94.79996 Y35.01001
G01 X94.80819 Y35.16683
G01 X94.86282 Y35.68662
G01 X94.88738 Y35.84171
G01 X94.92802 Y35.99337
G01 X95.08954 Y36.49043
G01 X95.14580 Y36.63699
G01 X95.21707 Y36.77684
G01 X95.47839 Y37.22947
G01 X95.56391 Y37.36116
G01 X95.66272 Y37.48319
G01 X95.90801 Y37.75560
G01 X95.92645 Y37.77270
G01 X95.94148 Y37.79279
G01 X96.01240 Y37.87155
G01 X96.12342 Y37.98258
G01 X96.24544 Y38.08141
G01 X96.66828 Y38.38862
G01 X96.79998 Y38.47414
G01 X96.93988 Y38.54541
G01 X97.18751 Y38.65568
G01 X97.41732 Y38.75799
G01 X97.56391 Y38.81425
G01 X97.71557 Y38.85489
G01 X98.22680 Y38.96355
G01 X98.38186 Y38.98811
G01 X98.53866 Y38.99634
G01 X99.06131 Y38.99634
G01 X99.21808 Y38.98811
G01 X99.37315 Y38.96355
G01 X99.88438 Y38.85489
G01 X100.03604 Y38.81425
G01 X100.03792 Y38.81352
G00 Z-0.60000
G01 X100.18262 Y38.75799
G01 X100.66007 Y38.54541
G01 X100.79997 Y38.47414
G01 X100.93167 Y38.38862
G01 X101.35450 Y38.08141
G01 X101.47660 Y37.98252
G01 X101.58770 Y37.87140
G01 X101.65859 Y37.79263
G01 X101.67345 Y37.77259
G01 X101.69189 Y37.75565
G01 X101.93718 Y37.48324
G01 X102.03601 Y37.36119
G01 X102.12156 Y37.22947
G01 X102.38287 Y36.77684
G01 X102.45414 Y36.63699
G01 X102.50545 Y36.50330
G01 X102.50976 Y36.49212
G01 Z-2.00000 F60.00000
G01 F600.00000
G01 X102.51041 Y36.49043
G01 X102.67192 Y35.99337
G01 X102.71256 Y35.84171
G01 X102.73713 Y35.68662
G01 X102.79176 Y35.16683
G01 X102.79999 Y35.01001
G01 X102.79176 Y34.85322
G01 X102.73713 Y34.33343
G01 X102.71256 Y34.17834
G01 X102.67192 Y34.02668
G01 X102.51041 Y33.52963
G01 X102.45414 Y33.38307
G01 X102.38287 Y33.24322
G01 X102.12156 Y32.79059
G01 X102.03604 Y32.65889
G01 X101.93723 Y32.53687
G01 X101.69194 Y32.26443
G01 X101.67345 Y32.24746
G01 X101.65846 Y32.22727
G01 X101.58755 Y32.14850
G01 X101.47652 Y32.03748
G01 X101.35450 Y31.93865
G01 X100.93167 Y31.63143
G01 X100.79997 Y31.54591
G01 X100.66007 Y31.47464
G01 X100.18262 Y31.26207
G01 X100.03604 Y31.20580
G01 X99.88438 Y31.16516
G01 X99.37315 Y31.05650
G01 X99.21808 Y31.03194
G01 X99.06131 Y31.02371
G01 X98.53866 Y31.02371
G01 X98.38186 Y31.03194
G01 X98.22680 Y31.05650
G01 X97.71557 Y31.16516
G01 X97.56391 Y31.20580
G01 X97.56231 Y31.20642
G00 Z-0.60000
G01 X97.41732 Y31.26207
G01 X97.18745 Y31.36440
G01 X96.93988 Y31.47464
G01 X96.79998 Y31.54591
G01 X96.66828 Y31.63143
G01 X96.24544 Y31.93865
G01 X96.12350 Y32.03740
G01 X96.01253 Y32.14835
G01 X95.94161 Y32.22711
G01 X95.92640 Y32.24741
G01 X97.03848 Y33.24865
G01 X97.04036 Y33.25045
G01 X97.06948 Y33.27957
G01 Z-2.00000 F60.00000
G01 F600.00000
G01 X98.78227 Y34.99236
G01 X98.79995 Y35.01004
G01 X98.81763 Y35.02772
G01 X100.55953 Y36.76960
G01 X100.56141 Y36.77140
G01 X101.67345 Y37.77259

G04 P0 ( dwell for no time -- G64 should not smooth over this point )
G00 Z10.000000 ( retract )

M5 ( Spindle off. )
G04 P1.000000
M9 ( Coolant off. )
M2 ( Program end. )

