; generated by PrusaSlicer 2.4.0+linux-x64 on 2022-01-02 at 20:41:58 UTC

; 

; external perimeters extrusion width = 0.45mm
; perimeters extrusion width = 0.45mm
; infill extrusion width = 0.45mm
; solid infill extrusion width = 0.45mm
; top infill extrusion width = 0.40mm
; first layer extrusion width = 0.42mm

M201 X500 Y500 Z100 E5000 ; sets maximum accelerations, mm/sec^2
M203 X500 Y500 Z10 E60 ; sets maximum feedrates, mm/sec
M204 P500 R1500 T500 ; sets acceleration (P, T) and retract acceleration (R), mm/sec^2
M205 X8.00 Y8.00 Z0.40 E5.00 ; sets the jerk limits, mm/sec
M205 S0 T0 ; sets the minimum extruding and travel feed rate, mm/sec
M107
;TYPE:Custom
G90 ; use absolute coordinates
M83 ; extruder relative mode
M140 S60 ; set final bed temp
M104 S150 ; set temporary nozzle temp to prevent oozing during homing
G4 S10 ; allow partial nozzle warmup
G28 ; home all axis
G1 Z50 F240
G1 X2 Y10 F3000
M104 S200 ; set final nozzle temp
M190 S60 ; wait for bed temp to stabilize
M109 S200 ; wait for nozzle temp to stabilize
G1 Z0.28 F240
G92 E0
G1 Y140 E10 F1500 ; prime the nozzle
G1 X2.3 F5000
G92 E0
G1 Y10 E10 F1200 ; prime the nozzle
G92 E0
G21 ; set units to millimeters
G90 ; use absolute coordinates
M83 ; use relative distances for extrusion
; Filament gcode
M107
;LAYER_CHANGE
;Z:0.12
;HEIGHT:0.12
;BEFORE_LAYER_CHANGE
G92 E0
;0.12


G1 E-6 F1500
G1 Z.2 F7800
;AFTER_LAYER_CHANGE
;0.12
G1 X57.762 Y21.262
G1 Z.12
G1 E6 F1500
;TYPE:Skirt/Brim
;WIDTH:0.42
G1 F1200
G1 X58.5 Y19.54 E.03685
G1 X59.087 Y18.432 E.02466
G1 X60.099 Y16.855 E.03685
G1 X61.054 Y15.626 E.03062
G1 X62.334 Y14.258 E.03685
G1 X63.263 Y13.416 E.02466
G1 X64.751 Y12.278 E.03685
G1 X66.068 Y11.448 E.03062
G1 X67.736 Y10.596 E.03685
G1 X69.245 Y10.006 E.03187
G1 X70.853 Y9.71 E.03215
G1 X79.717 Y9.693 E.17434
G1 X111.442 Y11.937 E.62558
G1 X112.746 Y12.266 E.02644
G1 X114.498 Y13.015 E.03748
G1 X116.138 Y13.921 E.03685
G1 X117.68 Y14.984 E.03685
G1 X119.109 Y16.195 E.03685
G1 X120.412 Y17.542 E.03685
G1 X121.574 Y19.011 E.03685
G1 X122.586 Y20.588 E.03685
G1 X123.436 Y22.257 E.03685
G1 X124.117 Y24.002 E.03685
G1 X124.621 Y25.806 E.03685
G1 X124.945 Y27.651 E.03685
G1 X125.084 Y29.52 E.03685
G1 X125.037 Y31.392 E.03685
G1 X124.806 Y33.251 E.03685
G1 X124.391 Y35.078 E.03685
G1 X123.797 Y36.855 E.03685
G1 X123.031 Y38.564 E.03685
G1 X122.098 Y40.189 E.03685
G1 X121.01 Y41.714 E.03685
G1 X119.553 Y43.349 E.04308
G1 X118.164 Y44.606 E.03685
G1 X116.658 Y45.72 E.03685
G1 X114.496 Y46.96 E.04902
G1 X112.774 Y47.698 E.03685
G1 X110.68 Y48.34 E.04307
G1 X108.226 Y48.771 E.04902
G1 X106.355 Y48.879 E.03685
G1 X105.129 Y48.85 E.02412
G1 X72.832 Y46.538 E.63689
G1 X70.685 Y46.107 E.04308
G1 X68.321 Y45.317 E.04902
G1 X67.177 Y44.804 E.02466
G1 X65.808 Y44.063 E.03062
G1 X63.995 Y42.835 E.04308
G1 X62.798 Y41.839 E.03062
G1 X61.473 Y40.515 E.03685
G1 X60.663 Y39.558 E.02466
G1 X59.574 Y38.034 E.03685
G1 X58.789 Y36.69 E.03062
G1 X57.993 Y34.994 E.03685
G1 X57.557 Y33.818 E.02466
G1 X57.052 Y32.014 E.03685
G1 X56.77 Y30.483 E.03062
G1 X56.635 Y29.237 E.02466
G1 X56.584 Y27.681 E.03062
G1 X56.691 Y25.811 E.03685
G1 X56.867 Y24.569 E.02466
G1 X57.281 Y22.742 E.03685
G1 X57.743 Y21.319 E.02944
G1 E-4.2 F1500
;WIPE_START
G1 F6240
G1 X58.5 Y19.54 E-.44145
G1 X59.087 Y18.432 E-.28636
G1 X60.099 Y16.855 E-.42781
G1 X61.054 Y15.626 E-.35546
G1 X61.649 Y14.99 E-.19892
;WIPE_END
G1 E-.09 F1500
G1 Z.32 F7800
G1 X103.948 Y20.039
G1 Z.12
G1 E6 F1500
;TYPE:Perimeter
G1 F1200
G1 X103.948 Y30.239 E.20062
G1 X104.079 Y30.76 E.01055
G1 X104.275 Y31.162 E.00881
G1 X104.48 Y31.444 E.00685
G1 X104.725 Y31.692 E.00685
G1 X105.069 Y31.937 E.00831
G1 X105.395 Y32.092 E.0071
G1 X105.814 Y32.208 E.00856
G1 X106.261 Y32.24 E.00881
G1 X106.705 Y32.182 E.00881
G1 X107.129 Y32.039 E.00881
G1 X107.516 Y31.814 E.00881
G1 X107.851 Y31.517 E.00881
G1 X108.114 Y31.17 E.00856
G1 X108.272 Y30.86 E.00685
G1 X108.387 Y30.518 E.0071
G1 X108.451 Y30 E.01026
G1 X108.445 Y19.239 E.21165
G1 X110.246 Y19.239 E.03543
G1 X110.323 Y19.252 E.00153
G1 X110.82 Y19.456 E.01057
G1 X111.337 Y19.698 E.01122
G1 X111.84 Y19.966 E.01122
G1 X112.33 Y20.258 E.01122
G1 X112.805 Y20.574 E.01122
G1 X113.264 Y20.913 E.01122
G1 X113.705 Y21.275 E.01122
G1 X114.128 Y21.657 E.01122
G1 X114.531 Y22.061 E.01122
G1 X114.913 Y22.484 E.01122
G1 X115.275 Y22.925 E.01122
G1 X115.614 Y23.384 E.01122
G1 X115.929 Y23.859 E.01122
G1 X116.221 Y24.349 E.01122
G1 X116.488 Y24.853 E.01122
G1 X116.73 Y25.369 E.01122
G1 X116.946 Y25.897 E.01122
G1 X117.136 Y26.435 E.01122
G1 X117.299 Y26.982 E.01122
G1 X117.434 Y27.536 E.01122
G1 X117.542 Y28.096 E.01122
G1 X117.621 Y28.661 E.01122
G1 X117.673 Y29.229 E.01122
G1 X117.696 Y29.799 E.01122
G1 X117.692 Y30.369 E.01122
G1 X117.659 Y30.939 E.01122
G1 X117.597 Y31.506 E.01122
G1 X117.508 Y32.069 E.01122
G1 X117.391 Y32.627 E.01122
G1 X117.246 Y33.179 E.01122
G1 X117.074 Y33.723 E.01122
G1 X116.876 Y34.258 E.01122
G1 X116.651 Y34.782 E.01122
G1 X116.4 Y35.294 E.01122
G1 X116.125 Y35.794 E.01122
G1 X115.824 Y36.279 E.01122
G1 X115.501 Y36.748 E.01122
G1 X115.154 Y37.201 E.01122
G1 X114.785 Y37.636 E.01122
G1 X114.396 Y38.053 E.01122
G1 X113.986 Y38.449 E.01122
G1 X113.556 Y38.825 E.01122
G1 X113.109 Y39.179 E.01122
G1 X112.645 Y39.511 E.01122
G1 X112.165 Y39.819 E.01122
G1 X111.67 Y40.102 E.01122
G1 X111.162 Y40.361 E.01122
G1 X110.641 Y40.595 E.01122
G1 X110.11 Y40.802 E.01122
G1 X109.569 Y40.983 E.01122
G1 X109.02 Y41.136 E.01122
G1 X108.464 Y41.263 E.01122
G1 X107.902 Y41.361 E.01122
G1 X107.336 Y41.432 E.01122
G1 X106.767 Y41.474 E.01122
G1 X106.197 Y41.488 E.01122
G1 X105.627 Y41.474 E.01122
G1 X105.058 Y41.432 E.01122
G1 X104.492 Y41.361 E.01122
G1 X103.93 Y41.263 E.01122
G1 X103.374 Y41.136 E.01122
G1 X102.824 Y40.983 E.01122
G1 X102.283 Y40.802 E.01122
G1 X101.752 Y40.595 E.01122
G1 X101.232 Y40.361 E.01122
G1 X100.723 Y40.102 E.01122
G1 X100.229 Y39.819 E.01122
G1 X99.749 Y39.511 E.01122
G1 X99.284 Y39.179 E.01122
G1 X98.837 Y38.825 E.01122
G1 X98.408 Y38.449 E.01122
G1 X97.998 Y38.053 E.01122
G1 X97.608 Y37.636 E.01122
G1 X97.24 Y37.201 E.01122
G1 X96.893 Y36.748 E.01122
G1 X96.569 Y36.279 E.01122
G1 X96.269 Y35.794 E.01121
G1 X95.988 Y35.284 E.01146
G1 X95.743 Y34.782 E.01098
G1 X95.518 Y34.258 E.01122
G1 X95.319 Y33.723 E.01122
G1 X95.147 Y33.179 E.01122
G1 X95.003 Y32.627 E.01122
G1 X94.886 Y32.069 E.01122
G1 X94.796 Y31.506 E.01122
G1 X94.735 Y30.939 E.01122
G1 X94.702 Y30.369 E.01122
G1 X94.697 Y29.799 E.01122
G1 X94.721 Y29.229 E.01122
G1 X94.772 Y28.661 E.01122
G1 X94.852 Y28.096 E.01122
G1 X94.96 Y27.536 E.01122
G1 X95.095 Y26.982 E.01122
G1 X95.258 Y26.435 E.01122
G1 X95.447 Y25.897 E.01122
G1 X95.663 Y25.369 E.01122
G1 X95.905 Y24.853 E.01122
G1 X96.172 Y24.349 E.01122
G1 X96.464 Y23.859 E.01122
G1 X96.78 Y23.384 E.01122
G1 X97.119 Y22.925 E.01122
G1 X97.48 Y22.484 E.01122
G1 X97.863 Y22.061 E.01122
G1 X98.266 Y21.657 E.01122
G1 X98.689 Y21.275 E.01122
G1 X99.13 Y20.913 E.01122
G1 X99.589 Y20.574 E.01122
G1 X100.063 Y20.258 E.01122
G1 X100.553 Y19.966 E.01122
G1 X101.057 Y19.698 E.01122
G1 X101.569 Y19.458 E.01113
G1 X102.089 Y19.251 E.011
G1 X103.948 Y19.239 E.03658
G1 X103.948 Y19.979 E.01456
G1 X104.343 Y19.245 F7800
G1 F1200
G1 X104.348 Y30.185 E.21517
G1 X104.452 Y30.626 E.00892
G1 X104.614 Y30.958 E.00726
G1 X104.782 Y31.188 E.00559
G1 X104.981 Y31.39 E.00559
G1 X105.27 Y31.595 E.00696
G1 X105.533 Y31.721 E.00574
G1 X105.882 Y31.817 E.00711
G1 X106.25 Y31.844 E.00726
G1 X106.616 Y31.796 E.00726
G1 X106.965 Y31.678 E.00726
G1 X107.284 Y31.493 E.00726
G1 X107.56 Y31.248 E.00726
G1 X107.778 Y30.96 E.00711
G1 X107.908 Y30.706 E.00559
G1 X108 Y30.43 E.00574
G1 X108.055 Y29.995 E.00862
G1 X108.051 Y18.845 E.21931
G1 X110.264 Y18.845 E.04354
G1 X110.451 Y18.879 E.00374
G1 X110.979 Y19.095 E.01121
G1 X111.513 Y19.345 E.0116
G1 X112.034 Y19.622 E.0116
G1 X112.541 Y19.924 E.0116
G1 X113.032 Y20.251 E.0116
G1 X113.506 Y20.602 E.0116
G1 X113.962 Y20.976 E.0116
G1 X114.399 Y21.372 E.0116
G1 X114.816 Y21.789 E.0116
G1 X115.212 Y22.227 E.0116
G1 X115.586 Y22.683 E.0116
G1 X115.937 Y23.158 E.0116
G1 X116.263 Y23.649 E.0116
G1 X116.565 Y24.156 E.0116
G1 X116.841 Y24.677 E.0116
G1 X117.092 Y25.211 E.0116
G1 X117.315 Y25.757 E.0116
G1 X117.511 Y26.314 E.0116
G1 X117.679 Y26.879 E.0116
G1 X117.819 Y27.452 E.0116
G1 X117.931 Y28.031 E.0116
G1 X118.013 Y28.616 E.0116
G1 X118.067 Y29.203 E.0116
G1 X118.091 Y29.793 E.0116
G1 X118.086 Y30.382 E.0116
G1 X118.052 Y30.971 E.0116
G1 X117.988 Y31.558 E.0116
G1 X117.896 Y32.141 E.0116
G1 X117.775 Y32.718 E.0116
G1 X117.625 Y33.289 E.0116
G1 X117.447 Y33.851 E.0116
G1 X117.242 Y34.404 E.0116
G1 X117.009 Y34.946 E.0116
G1 X116.75 Y35.476 E.0116
G1 X116.465 Y35.993 E.0116
G1 X116.155 Y36.494 E.0116
G1 X115.82 Y36.98 E.0116
G1 X115.461 Y37.449 E.0116
G1 X115.08 Y37.899 E.0116
G1 X114.677 Y38.329 E.0116
G1 X114.253 Y38.74 E.0116
G1 X113.809 Y39.128 E.0116
G1 X113.346 Y39.494 E.0116
G1 X112.866 Y39.837 E.0116
G1 X112.37 Y40.156 E.0116
G1 X111.858 Y40.449 E.0116
G1 X111.332 Y40.717 E.0116
G1 X110.794 Y40.958 E.0116
G1 X110.244 Y41.173 E.0116
G1 X109.685 Y41.36 E.0116
G1 X109.117 Y41.519 E.0116
G1 X108.541 Y41.649 E.0116
G1 X107.96 Y41.751 E.0116
G1 X107.375 Y41.824 E.0116
G1 X106.787 Y41.868 E.0116
G1 X106.197 Y41.883 E.0116
G1 X105.607 Y41.868 E.0116
G1 X105.019 Y41.824 E.0116
G1 X104.433 Y41.751 E.0116
G1 X103.852 Y41.649 E.0116
G1 X103.277 Y41.519 E.0116
G1 X102.709 Y41.36 E.0116
G1 X102.149 Y41.173 E.0116
G1 X101.6 Y40.958 E.0116
G1 X101.061 Y40.717 E.0116
G1 X100.536 Y40.449 E.0116
G1 X100.024 Y40.156 E.0116
G1 X99.527 Y39.837 E.0116
G1 X99.047 Y39.494 E.0116
G1 X98.585 Y39.128 E.0116
G1 X98.141 Y38.74 E.0116
G1 X97.717 Y38.329 E.0116
G1 X97.314 Y37.899 E.0116
G1 X96.932 Y37.449 E.0116
G1 X96.574 Y36.98 E.0116
G1 X96.239 Y36.494 E.0116
G1 X95.929 Y35.993 E.0116
G1 X95.638 Y35.465 E.01185
G1 X95.384 Y34.946 E.01136
G1 X95.152 Y34.404 E.0116
G1 X94.946 Y33.851 E.01161
G1 X94.769 Y33.289 E.0116
G1 X94.619 Y32.718 E.0116
G1 X94.498 Y32.141 E.0116
G1 X94.405 Y31.558 E.0116
G1 X94.342 Y30.971 E.0116
G1 X94.308 Y30.382 E.0116
G1 X94.303 Y29.793 E.0116
G1 X94.327 Y29.203 E.0116
G1 X94.381 Y28.616 E.0116
G1 X94.463 Y28.031 E.0116
G1 X94.574 Y27.452 E.0116
G1 X94.714 Y26.879 E.0116
G1 X94.883 Y26.314 E.0116
G1 X95.079 Y25.757 E.0116
G1 X95.302 Y25.211 E.0116
G1 X95.552 Y24.677 E.0116
G1 X95.829 Y24.156 E.0116
G1 X96.13 Y23.649 E.0116
G1 X96.457 Y23.158 E.0116
G1 X96.808 Y22.683 E.0116
G1 X97.181 Y22.227 E.0116
G1 X97.577 Y21.789 E.0116
G1 X97.994 Y21.372 E.0116
G1 X98.431 Y20.976 E.0116
G1 X98.888 Y20.602 E.0116
G1 X99.362 Y20.251 E.0116
G1 X99.853 Y19.924 E.0116
G1 X100.36 Y19.622 E.0116
G1 X100.881 Y19.345 E.0116
G1 X101.412 Y19.096 E.01155
G1 X101.987 Y18.867 E.01217
G1 X102.143 Y18.845 E.0031
G1 X104.343 Y18.845 E.04326
G1 X104.343 Y19.185 E.00669
G1 X104.737 Y18.451 F7800
;TYPE:External perimeter
G1 F1200
G1 X104.737 Y29.451 E.21636
G1 X104.84 Y29.451 E.00203
G1 X104.75 Y29.78 E.00671
G1 X104.743 Y30.143 E.00713
G1 X104.826 Y30.493 E.00708
G1 X104.953 Y30.754 E.00571
G1 X105.083 Y30.932 E.00434
G1 X105.238 Y31.089 E.00434
G1 X105.47 Y31.254 E.00561
G1 X105.672 Y31.35 E.00439
G1 X105.949 Y31.427 E.00566
G1 X106.238 Y31.447 E.00571
G1 X106.526 Y31.41 E.00571
G1 X106.801 Y31.317 E.00571
G1 X107.052 Y31.171 E.00571
G1 X107.269 Y30.979 E.00571
G1 X107.443 Y30.749 E.00566
G1 X107.543 Y30.553 E.00434
G1 X107.614 Y30.342 E.00439
G1 X107.658 Y29.99 E.00697
G1 X107.63 Y29.704 E.00565
G1 X107.56 Y29.451 E.00517
G1 X107.657 Y29.451 E.00191
G1 X107.657 Y18.451 E.21636
G1 X110.282 Y18.451 E.05164
G1 X110.435 Y18.465 E.00301
G1 X110.58 Y18.505 E.00296
G1 X111.137 Y18.734 E.01185
G1 X111.689 Y18.993 E.01199
G1 X112.227 Y19.278 E.01199
G1 X112.751 Y19.591 E.01199
G1 X113.258 Y19.928 E.01199
G1 X113.748 Y20.291 E.01199
G1 X114.22 Y20.677 E.01199
G1 X114.671 Y21.086 E.01199
G1 X115.102 Y21.517 E.01199
G1 X115.511 Y21.969 E.01199
G1 X115.897 Y22.441 E.01199
G1 X116.259 Y22.931 E.01199
G1 X116.597 Y23.439 E.01199
G1 X116.909 Y23.962 E.01199
G1 X117.194 Y24.501 E.01199
G1 X117.453 Y25.053 E.01199
G1 X117.684 Y25.617 E.01199
G1 X117.886 Y26.192 E.01199
G1 X118.06 Y26.776 E.01199
G1 X118.204 Y27.368 E.01199
G1 X118.32 Y27.967 E.01199
G1 X118.405 Y28.57 E.01199
G1 X118.46 Y29.177 E.01199
G1 X118.485 Y29.786 E.01199
G1 X118.48 Y30.396 E.01199
G1 X118.445 Y31.004 E.01199
G1 X118.379 Y31.61 E.01199
G1 X118.284 Y32.212 E.01199
G1 X118.158 Y32.809 E.01199
G1 X118.004 Y33.398 E.01199
G1 X117.82 Y33.979 E.01199
G1 X117.608 Y34.551 E.01199
G1 X117.368 Y35.111 E.01199
G1 X117.1 Y35.658 E.01199
G1 X116.805 Y36.192 E.01199
G1 X116.485 Y36.71 E.01199
G1 X116.139 Y37.212 E.01199
G1 X115.768 Y37.696 E.01199
G1 X115.374 Y38.161 E.01199
G1 X114.958 Y38.606 E.01199
G1 X114.52 Y39.03 E.01199
G1 X114.061 Y39.431 E.01199
G1 X113.583 Y39.81 E.01199
G1 X113.087 Y40.164 E.01199
G1 X112.574 Y40.493 E.01199
G1 X112.046 Y40.796 E.01199
G1 X111.502 Y41.073 E.01199
G1 X110.946 Y41.322 E.01199
G1 X110.378 Y41.544 E.01199
G1 X109.8 Y41.737 E.01199
G1 X109.213 Y41.901 E.01199
G1 X108.619 Y42.036 E.01199
G1 X108.019 Y42.141 E.01199
G1 X107.414 Y42.217 E.01199
G1 X106.806 Y42.262 E.01199
G1 X106.197 Y42.277 E.01199
G1 X105.587 Y42.262 E.01199
G1 X104.98 Y42.217 E.01199
G1 X104.375 Y42.141 E.01199
G1 X103.775 Y42.036 E.01199
G1 X103.18 Y41.901 E.01199
G1 X102.593 Y41.737 E.01199
G1 X102.015 Y41.544 E.01199
G1 X101.447 Y41.322 E.01199
G1 X100.891 Y41.073 E.01199
G1 X100.348 Y40.796 E.01199
G1 X99.819 Y40.493 E.01199
G1 X99.306 Y40.164 E.01199
G1 X98.81 Y39.81 E.01199
G1 X98.332 Y39.431 E.01199
G1 X97.874 Y39.03 E.01199
G1 X97.436 Y38.606 E.01199
G1 X97.019 Y38.161 E.01199
G1 X96.625 Y37.696 E.01199
G1 X96.255 Y37.212 E.01199
G1 X95.909 Y36.71 E.01199
G1 X95.588 Y36.192 E.01199
G1 X95.288 Y35.647 E.01223
G1 X95.026 Y35.111 E.01175
G1 X94.786 Y34.551 E.01199
G1 X94.573 Y33.979 E.01199
G1 X94.39 Y33.398 E.01199
G1 X94.235 Y32.809 E.01199
G1 X94.11 Y32.212 E.01199
G1 X94.014 Y31.61 E.01199
G1 X93.949 Y31.004 E.01199
G1 X93.914 Y30.396 E.01199
G1 X93.908 Y29.786 E.01199
G1 X93.934 Y29.177 E.01199
G1 X93.989 Y28.57 E.01199
G1 X94.074 Y27.967 E.01199
G1 X94.189 Y27.368 E.01199
G1 X94.334 Y26.776 E.01199
G1 X94.508 Y26.192 E.01199
G1 X94.71 Y25.617 E.01199
G1 X94.941 Y25.053 E.01199
G1 X95.199 Y24.501 E.01199
G1 X95.485 Y23.962 E.01199
G1 X95.797 Y23.439 E.01199
G1 X96.134 Y22.931 E.01199
G1 X96.496 Y22.441 E.01199
G1 X96.882 Y21.969 E.01199
G1 X97.291 Y21.517 E.01199
G1 X97.722 Y21.086 E.01199
G1 X98.174 Y20.677 E.01199
G1 X98.645 Y20.291 E.01199
G1 X99.135 Y19.928 E.01199
G1 X99.643 Y19.591 E.01199
G1 X100.166 Y19.278 E.01199
G1 X100.705 Y18.993 E.01199
G1 X101.256 Y18.734 E.01197
G1 X101.886 Y18.483 E.01334
G1 X102.116 Y18.451 E.00458
G1 X104.677 Y18.451 E.05037
G1 X104.538 Y18.798 F7800
G1 E-4.2 F1500
;WIPE_START
G1 F6240
G1 X104.718 Y25.939 E-1.71
;WIPE_END
G1 E-.09 F1500
G1 Z.32 F7800
G1 X112.681 Y20.633
G1 Z.12
G1 E6 F1500
;TYPE:Solid infill
;WIDTH:0.425776
G1 F1200
G1 X114.354 Y22.306 E.04721
G1 X114.689 Y22.677 E.00998
G1 X115.041 Y23.107 E.01109
G1 X115.371 Y23.554 E.01109
G1 X115.679 Y24.017 E.01109
G1 X115.945 Y24.463 E.01037
G1 X111.72 Y20.238 E.11924
G1 X111.204 Y19.963 E.01167
G1 X110.603 Y19.686 E.01321
G1 X116.498 Y25.581 E.16637
G1 X116.842 Y26.492 E.01943
G1 X109.886 Y19.535 E.19634
G1 X109.32 Y19.535 E.01129
G1 X117.068 Y27.283 E.21867
G1 X117.223 Y28.003 E.01471
G1 X108.741 Y19.535 E.2392
G1 X108.741 Y20.088 E.01104
G1 X117.324 Y28.671 E.24223
G1 X117.38 Y29.292 E.01245
G1 X108.742 Y20.654 E.24379
G1 X108.742 Y21.22 E.0113
G1 X117.4 Y29.878 E.24436
G1 X117.392 Y30.435 E.01112
G1 X108.742 Y21.786 E.24411
G1 X108.743 Y22.352 E.0113
G1 X117.358 Y30.968 E.24316
G1 X117.302 Y31.478 E.01024
G1 X108.743 Y22.918 E.24158
G1 X108.743 Y23.484 E.0113
G1 X117.225 Y31.966 E.23938
G1 X117.129 Y32.436 E.00957
G1 X108.744 Y24.05 E.23666
G1 X108.744 Y24.616 E.0113
G1 X117.017 Y32.889 E.23348
G1 X116.889 Y33.327 E.00911
G1 X108.744 Y25.182 E.22988
G1 X108.745 Y25.748 E.0113
G1 X116.748 Y33.752 E.22589
