;FLAVOR:Marlin
;TIME:11916
;Filament used: 7.26448m
;Layer height: 0.16
;MINX:69.202
;MINY:57.089
;MINZ:0.2
;MAXX:150.798
;MAXY:136.186
;MAXZ:9.96
;Generated with Cura_SteamEngine 4.12.1
M140 S60
M105
M190 S60
M104 S200
M105
M109 S200
M82 ;absolute extrusion mode
; Ender 3 Custom Start G-code
G92 E0 ; Reset Extruder
G28 ; Home all axes
G1 Z2.0 F3000 ; Move Z Axis up little to prevent scratching of Heat Bed
G1 X0.1 Y20 Z0.3 F5000.0 ; Move to start position
G1 X0.1 Y200.0 Z0.3 F1500.0 E15 ; Draw the first line
G1 X0.4 Y200.0 Z0.3 F5000.0 ; Move to side a little
G1 X0.4 Y20 Z0.3 F1500.0 E30 ; Draw the second line
G92 E0 ; Reset Extruder
G1 Z2.0 F3000 ; Move Z Axis up little to prevent scratching of Heat Bed
G1 X5 Y20 Z0.3 F5000.0 ; Move over to prevent blob squish
G92 E0
G92 E0
G1 F1500 E-6.2
;LAYER_COUNT:55
;LAYER:0
M107
G0 F6000 X79.881 Y69.116 Z0.2
;TYPE:SKIRT
G1 F1500 E0
G1 F1200 X80.159 Y68.829 E0.01329
G1 X80.153 Y68.823 E0.01357
G1 X81.301 Y67.64 E0.0684
G1 X81.578 Y67.368 E0.08131
G1 X82.769 Y66.257 E0.13548
G1 X83.055 Y66.004 E0.14818
G1 X84.314 Y64.94 E0.20301
G1 X84.622 Y64.693 E0.21614
G1 X85.92 Y63.704 E0.27042
G1 X86.228 Y63.481 E0.28306
G1 X87.553 Y62.57 E0.33654
G1 X88.225 Y62.156 E0.3628
G1 X88.936 Y61.812 E0.38907
G1 X89.617 Y61.561 E0.41321
G1 X89.677 Y61.542 E0.4153
G1 X90.441 Y61.342 E0.44157
G1 X91.221 Y61.22 E0.46783
G1 X92.032 Y61.178 E0.49484
G1 X94.575 Y61.178 E0.57942
G1 X94.863 Y60.761 E0.59627
G1 X95.064 Y60.492 E0.60744
G1 X95.568 Y59.884 E0.63371
G1 X96.295 Y59.189 E0.66716
G1 X96.32 Y59.168 E0.66824
G1 X97.168 Y58.547 E0.7032
G1 X97.44 Y58.375 E0.71391
G1 X98.128 Y57.988 E0.74016
G1 X98.564 Y57.787 E0.75613
G1 X99.305 Y57.513 E0.78241
G1 X99.942 Y57.342 E0.80434
G1 X100.234 Y57.277 E0.81429
G1 X101.245 Y57.121 E0.84832
G1 X101.951 Y57.089 E0.87182
G1 X118.018 Y57.089 E1.40621
G1 X118.807 Y57.129 E1.43249
G1 X119.382 Y57.209 E1.4518
G1 X119.686 Y57.263 E1.46207
G1 X120.456 Y57.441 E1.48835
G1 X120.952 Y57.6 E1.50568
G1 X121.682 Y57.9 E1.53193
G1 X122.22 Y58.18 E1.5521
G1 X122.49 Y58.334 E1.56244
G1 X123.156 Y58.759 E1.58872
G1 X123.69 Y59.177 E1.61127
G1 X124.267 Y59.717 E1.63756
G1 X124.549 Y60.025 E1.65144
G1 X124.749 Y60.256 E1.66161
G1 X125.235 Y60.879 E1.68789
G1 X125.428 Y61.178 E1.69972
G1 X127.968 Y61.178 E1.7842
G1 X128.757 Y61.218 E1.81048
G1 X129.537 Y61.337 E1.83672
G1 X130.323 Y61.542 E1.86374
G1 X130.383 Y61.561 E1.86583
G1 X131.123 Y61.837 E1.8921
G1 X131.831 Y62.187 E1.91837
G1 X132.444 Y62.568 E1.94238
G1 X133.776 Y63.483 E1.99613
G1 X134.096 Y63.714 E2.00925
G1 X135.389 Y64.702 E2.06338
G1 X135.688 Y64.943 E2.07615
G1 X136.973 Y66.029 E2.13211
G1 X137.259 Y66.283 E2.14483
G1 X138.425 Y67.371 E2.19787
G1 X138.704 Y67.645 E2.21088
G1 X139.849 Y68.826 E2.26559
G1 X139.843 Y68.832 E2.26587
G1 X140.121 Y69.117 E2.27911
G1 X141.193 Y70.339 E2.33318
G1 X141.446 Y70.643 E2.34633
G1 X142.484 Y71.955 E2.40198
G1 X142.711 Y72.257 E2.41454
G1 X143.651 Y73.571 E2.46828
G1 X143.867 Y73.889 E2.48106
G1 X144.749 Y75.26 E2.53528
G1 X144.953 Y75.595 E2.54833
G1 X145.787 Y77.047 E2.60402
G1 X145.973 Y77.391 E2.61703
G1 X146.703 Y78.824 E2.67052
G1 X146.871 Y79.175 E2.68346
G1 X147.558 Y80.708 E2.73934
G1 X147.701 Y81.049 E2.75163
G1 X148.284 Y82.535 E2.80473
G1 X148.421 Y82.913 E2.8181
G1 X148.941 Y84.47 E2.8727
G1 X149.054 Y84.836 E2.88544
G1 X149.499 Y86.424 E2.94029
G1 X149.593 Y86.796 E2.95305
G1 X149.955 Y88.385 E3.00725
G1 X150.033 Y88.771 E3.02035
G1 X150.318 Y90.396 E3.07523
G1 X150.376 Y90.786 E3.08834
G1 X150.58 Y92.437 E3.14367
G1 X150.617 Y92.811 E3.15617
G1 X150.737 Y94.412 E3.20957
G1 X150.757 Y94.8 E3.22249
G1 X150.798 Y96.439 E3.27702
G1 X150.798 Y96.828 E3.28996
G1 X150.757 Y98.477 E3.34482
G1 X150.737 Y98.863 E3.35768
G1 X150.616 Y100.487 E3.41184
G1 X150.578 Y100.876 E3.42484
G1 X150.374 Y102.506 E3.47948
G1 X150.317 Y102.884 E3.49219
G1 X150.034 Y104.498 E3.54669
G1 X149.956 Y104.883 E3.55976
G1 X149.592 Y106.481 E3.61427
G1 X149.498 Y106.854 E3.62706
G1 X149.055 Y108.435 E3.68167
G1 X148.941 Y108.804 E3.69452
G1 X148.418 Y110.368 E3.74937
G1 X148.284 Y110.738 E3.76246
G1 X147.69 Y112.255 E3.81664
G1 X147.541 Y112.609 E3.82942
G1 X146.869 Y114.104 E3.88393
G1 X146.707 Y114.444 E3.89646
G1 X145.964 Y115.904 E3.95095
G1 X145.771 Y116.259 E3.96439
G1 X144.952 Y117.681 E4.01897
G1 X144.752 Y118.01 E4.03177
G1 X143.863 Y119.391 E4.0864
G1 X143.648 Y119.708 E4.09914
G1 X142.695 Y121.04 E4.15361
G1 X142.466 Y121.344 E4.16627
G1 X141.442 Y122.637 E4.22113
G1 X141.189 Y122.94 E4.23426
G1 X140.119 Y124.159 E4.28821
G1 X139.841 Y124.445 E4.30147
G1 X139.847 Y124.451 E4.30175
G1 X138.699 Y125.634 E4.35658
G1 X138.422 Y125.906 E4.36949
G1 X137.231 Y127.017 E4.42367
G1 X136.945 Y127.27 E4.43637
G1 X135.686 Y128.334 E4.49119
G1 X135.378 Y128.581 E4.50432
G1 X134.08 Y129.57 E4.5586
G1 X133.772 Y129.793 E4.57125
G1 X132.447 Y130.704 E4.62473
G1 X131.775 Y131.118 E4.65098
G1 X131.064 Y131.462 E4.67725
G1 X130.383 Y131.713 E4.70139
G1 X130.323 Y131.732 E4.70348
G1 X129.559 Y131.932 E4.72975
G1 X128.779 Y132.054 E4.75601
G1 X127.968 Y132.096 E4.78302
G1 X125.421 Y132.096 E4.86773
G1 X125.175 Y132.46 E4.88234
G1 X124.971 Y132.737 E4.89379
G1 X124.471 Y133.349 E4.92007
G1 X123.783 Y134.02 E4.95203
G1 X123.754 Y134.045 E4.95331
G1 X123.13 Y134.529 E4.97957
G1 X122.677 Y134.823 E4.99753
G1 X122.374 Y135.005 E5.00929
G1 X121.678 Y135.377 E5.03554
G1 X121.225 Y135.573 E5.05196
G1 X120.478 Y135.829 E5.07822
G1 X119.887 Y135.974 E5.09846
G1 X119.632 Y136.026 E5.10712
G1 X118.829 Y136.146 E5.13412
G1 X118.053 Y136.185 E5.15996
G1 X101.955 Y136.186 E5.69538
G1 X101.124 Y136.142 E5.72306
G1 X101.096 Y136.139 E5.724
G1 X100.025 Y135.947 E5.76019
G1 X99.687 Y135.862 E5.77178
G1 X98.932 Y135.631 E5.79804
G1 X98.173 Y135.31 E5.82545
G1 X98.134 Y135.291 E5.82689
G1 X97.442 Y134.91 E5.85317
G1 X96.906 Y134.546 E5.87472
G1 X96.628 Y134.34 E5.88622
G1 X96.018 Y133.838 E5.9125
G1 X95.364 Y133.166 E5.94369
G1 X95.339 Y133.137 E5.94496
G1 X94.855 Y132.513 E5.97123
G1 X94.585 Y132.096 E5.98775
G1 X92.032 Y132.096 E6.07266
G1 X91.243 Y132.056 E6.09894
G1 X90.463 Y131.937 E6.12518
G1 X89.677 Y131.732 E6.1522
G1 X89.617 Y131.713 E6.15429
G1 X88.877 Y131.437 E6.18056
G1 X88.169 Y131.087 E6.20683
G1 X87.556 Y130.706 E6.23084
G1 X86.224 Y129.791 E6.28458
G1 X85.903 Y129.559 E6.29776
G1 X84.609 Y128.57 E6.35193
G1 X84.309 Y128.329 E6.36473
G1 X83.026 Y127.244 E6.42061
G1 X82.744 Y126.993 E6.43317
G1 X81.577 Y125.905 E6.48623
G1 X81.291 Y125.624 E6.49957
G1 X80.125 Y124.419 E6.55534
G1 X80.132 Y124.413 E6.55565
G1 X79.859 Y124.133 E6.56865
G1 X78.808 Y122.935 E6.62166
G1 X78.557 Y122.634 E6.63469
G1 X77.532 Y121.34 E6.6896
G1 X77.297 Y121.028 E6.70259
G1 X76.327 Y119.669 E6.75812
G1 X76.118 Y119.361 E6.7705
G1 X75.246 Y118.007 E6.82407
G1 X75.042 Y117.671 E6.83714
G1 X74.224 Y116.248 E6.89174
G1 X74.035 Y115.901 E6.90488
G1 X73.291 Y114.44 E6.95941
G1 X73.127 Y114.096 E6.97208
G1 X72.456 Y112.602 E7.02656
G1 X72.306 Y112.244 E7.03947
G1 X71.697 Y110.685 E7.09513
G1 X71.564 Y110.318 E7.10812
G1 X71.055 Y108.794 E7.16156
G1 X70.942 Y108.426 E7.17436
G1 X70.5 Y106.847 E7.2289
G1 X70.405 Y106.472 E7.24177
G1 X70.042 Y104.874 E7.29627
G1 X69.965 Y104.491 E7.30926
G1 X69.682 Y102.874 E7.36386
G1 X69.624 Y102.486 E7.37691
G1 X69.419 Y100.827 E7.43251
G1 X69.382 Y100.451 E7.44507
G1 X69.263 Y98.859 E7.49817
G1 X69.243 Y98.473 E7.51103
G1 X69.202 Y96.835 E7.56553
G1 X69.202 Y96.446 E7.57846
G1 X69.243 Y94.797 E7.63333
G1 X69.263 Y94.411 E7.64618
G1 X69.384 Y92.787 E7.70035
G1 X69.422 Y92.398 E7.71335
G1 X69.626 Y90.768 E7.76798
G1 X69.683 Y90.39 E7.7807
G1 X69.966 Y88.776 E7.8352
G1 X70.044 Y88.391 E7.84826
G1 X70.408 Y86.793 E7.90277
G1 X70.502 Y86.42 E7.91557
G1 X70.945 Y84.839 E7.97018
G1 X71.059 Y84.47 E7.98302
G1 X71.582 Y82.906 E8.03787
G1 X71.716 Y82.536 E8.05096
G1 X72.31 Y81.019 E8.10515
G1 X72.459 Y80.665 E8.11792
G1 X73.131 Y79.17 E8.17244
G1 X73.294 Y78.829 E8.18501
G1 X74.039 Y77.366 E8.23961
G1 X74.23 Y77.013 E8.25296
G1 X75.047 Y75.594 E8.30742
G1 X75.248 Y75.264 E8.32028
G1 X76.137 Y73.883 E8.3749
G1 X76.352 Y73.566 E8.38764
G1 X77.305 Y72.234 E8.44212
G1 X77.535 Y71.93 E8.45479
G1 X78.56 Y70.636 E8.5097
G1 X78.812 Y70.334 E8.52278
G1 X79.881 Y69.116 E8.57668
G0 F6000 X80.181 Y69.38
G1 F1200 X80.446 Y69.108 E8.58931
G1 X80.44 Y69.102 E8.5896
G1 X81.588 Y67.919 E8.64442
G1 X81.851 Y67.661 E8.65668
G1 X83.042 Y66.55 E8.71085
G1 X83.313 Y66.309 E8.72291
G1 X84.572 Y65.245 E8.77774
G1 X84.864 Y65.011 E8.79018
G1 X86.162 Y64.022 E8.84446
G1 X86.454 Y63.81 E8.85646
G1 X87.779 Y62.899 E8.90994
G1 X88.435 Y62.497 E8.93553
G1 X89.129 Y62.165 E8.96112
G1 X89.738 Y61.942 E8.98269
G1 X89.798 Y61.923 E8.98478
G1 X90.542 Y61.729 E9.01035
G1 X91.303 Y61.614 E9.03595
G1 X92.032 Y61.578 E9.06023
G1 X94.8 Y61.578 E9.15229
G1 X94.872 Y61.451 E9.15715
G1 X95.183 Y61.001 E9.17534
G1 X95.384 Y60.732 E9.18651
G1 X95.876 Y60.14 E9.21211
G1 X96.552 Y59.495 E9.24319
G1 X96.577 Y59.474 E9.24428
G1 X97.382 Y58.886 E9.27743
G1 X97.654 Y58.714 E9.28814
G1 X98.325 Y58.337 E9.31374
G1 X98.722 Y58.154 E9.32827
G1 X99.444 Y57.888 E9.35387
G1 X100.029 Y57.733 E9.37399
G1 X100.321 Y57.668 E9.38394
G1 X101.281 Y57.519 E9.41626
G1 X101.951 Y57.489 E9.43856
G1 X118.018 Y57.489 E9.97295
G1 X118.786 Y57.529 E9.99853
G1 X119.312 Y57.603 E10.0162
G1 X119.616 Y57.657 E10.02647
G1 X120.366 Y57.831 E10.05208
G1 X120.819 Y57.977 E10.06791
G1 X121.53 Y58.27 E10.09348
G1 X122.022 Y58.527 E10.11195
G1 X122.292 Y58.681 E10.12228
G1 X122.94 Y59.096 E10.14788
G1 X123.432 Y59.482 E10.16868
G1 X124.246 Y60.287 E10.20675
G1 X124.446 Y60.518 E10.21692
G1 X124.919 Y61.125 E10.24251
G1 X125.211 Y61.578 E10.26044
G1 X127.968 Y61.578 E10.35213
G1 X128.736 Y61.618 E10.37771
G1 X129.496 Y61.737 E10.4033
G1 X130.202 Y61.923 E10.42758
G1 X130.262 Y61.942 E10.42968
G1 X130.982 Y62.212 E10.45525
G1 X131.671 Y62.556 E10.48086
G1 X132.218 Y62.897 E10.5023
G1 X133.55 Y63.812 E10.55605
G1 X133.853 Y64.032 E10.56851
G1 X135.146 Y65.02 E10.62263
G1 X135.43 Y65.248 E10.63474
G1 X136.715 Y66.334 E10.6907
G1 X136.986 Y66.576 E10.70278
G1 X138.152 Y67.664 E10.75583
G1 X138.417 Y67.923 E10.76815
G1 X139.562 Y69.104 E10.82286
G1 X139.556 Y69.11 E10.82314
G1 X139.82 Y69.381 E10.83573
G1 X140.892 Y70.603 E10.88979
G1 X141.132 Y70.892 E10.90229
G1 X142.17 Y72.204 E10.95793
G1 X142.386 Y72.49 E10.96985
G1 X143.326 Y73.804 E11.02359
G1 X143.53 Y74.105 E11.03568
G1 X144.412 Y75.476 E11.0899
G1 X144.606 Y75.794 E11.10229
G1 X145.44 Y77.246 E11.15799
G1 X145.617 Y77.573 E11.17035
G1 X146.347 Y79.006 E11.22384
G1 X146.506 Y79.339 E11.23612
G1 X147.193 Y80.872 E11.29199
G1 X147.329 Y81.195 E11.30365
G1 X147.912 Y82.681 E11.35674
G1 X148.042 Y83.04 E11.36944
G1 X148.562 Y84.597 E11.42403
G1 X148.669 Y84.944 E11.43611
G1 X149.114 Y86.532 E11.49096
G1 X149.203 Y86.885 E11.50307
G1 X149.565 Y88.474 E11.55728
G1 X149.639 Y88.84 E11.5697
G1 X149.924 Y90.465 E11.62457
G1 X149.979 Y90.836 E11.63704
G1 X150.183 Y92.487 E11.69237
G1 X150.218 Y92.841 E11.7042
G1 X150.338 Y94.442 E11.7576
G1 X150.357 Y94.81 E11.76986
G1 X150.398 Y96.449 E11.82439
G1 X150.398 Y96.818 E11.83666
G1 X150.357 Y98.467 E11.89153
G1 X150.339 Y98.833 E11.90371
G1 X150.218 Y100.457 E11.95788
G1 X150.181 Y100.826 E11.97021
G1 X149.977 Y102.456 E12.02485
G1 X149.923 Y102.815 E12.03692
G1 X149.64 Y104.429 E12.09143
G1 X149.566 Y104.795 E12.10384
G1 X149.202 Y106.393 E12.15836
G1 X149.113 Y106.746 E12.17046
G1 X148.67 Y108.327 E12.22507
G1 X148.562 Y108.677 E12.23726
G1 X148.039 Y110.241 E12.29211
G1 X147.912 Y110.592 E12.30452
G1 X147.318 Y112.109 E12.35871
G1 X147.176 Y112.445 E12.37084
G1 X146.504 Y113.94 E12.42536
G1 X146.35 Y114.262 E12.43723
G1 X145.607 Y115.722 E12.49171
G1 X145.424 Y116.059 E12.50447
G1 X144.605 Y117.481 E12.55905
G1 X144.415 Y117.793 E12.5712
G1 X143.526 Y119.174 E12.62582
G1 X143.322 Y119.475 E12.63792
G1 X142.369 Y120.807 E12.69239
G1 X142.152 Y121.095 E12.70439
G1 X141.128 Y122.388 E12.75924
G1 X140.888 Y122.676 E12.77171
G1 X139.818 Y123.895 E12.82566
G1 X139.554 Y124.166 E12.83824
G1 X139.56 Y124.172 E12.83853
G1 X138.412 Y125.355 E12.89335
G1 X138.149 Y125.613 E12.90561
G1 X136.958 Y126.724 E12.95978
G1 X136.687 Y126.965 E12.97184
G1 X135.428 Y128.029 E13.02667
G1 X135.136 Y128.263 E13.03911
G1 X133.838 Y129.252 E13.09339
G1 X133.546 Y129.464 E13.10539
G1 X132.221 Y130.375 E13.15887
G1 X131.565 Y130.777 E13.18446
G1 X130.871 Y131.109 E13.21005
G1 X130.262 Y131.332 E13.23162
G1 X130.202 Y131.351 E13.23371
G1 X129.458 Y131.545 E13.25929
G1 X128.697 Y131.66 E13.28488
G1 X127.968 Y131.696 E13.30916
G1 X125.204 Y131.696 E13.40109
G1 X125.179 Y131.742 E13.40283
G1 X124.852 Y132.223 E13.42218
G1 X124.648 Y132.5 E13.43362
G1 X124.161 Y133.095 E13.45919
G1 X123.522 Y133.717 E13.48885
G1 X123.493 Y133.742 E13.49013
G1 X122.885 Y134.213 E13.51571
G1 X122.471 Y134.481 E13.53211
G1 X122.168 Y134.663 E13.54387
G1 X121.489 Y135.024 E13.56944
G1 X121.076 Y135.202 E13.5844
G1 X120.348 Y135.45 E13.60998
G1 X119.807 Y135.582 E13.6285
G1 X119.552 Y135.634 E13.63716
G1 X118.789 Y135.748 E13.66282
G1 X118.053 Y135.785 E13.68733
G1 X101.955 Y135.786 E14.22275
G1 X101.167 Y135.744 E14.249
G1 X101.139 Y135.741 E14.24993
G1 X100.122 Y135.56 E14.28429
G1 X99.784 Y135.475 E14.29588
G1 X99.049 Y135.248 E14.32147
G1 X98.348 Y134.951 E14.34679
G1 X98.309 Y134.932 E14.34823
G1 X97.636 Y134.559 E14.37382
G1 X97.144 Y134.225 E14.3936
G1 X96.866 Y134.019 E14.40511
G1 X96.273 Y133.529 E14.4307
G1 X95.667 Y132.905 E14.45963
G1 X95.642 Y132.876 E14.4609
G1 X95.171 Y132.268 E14.48648
G1 X94.898 Y131.845 E14.50322
G1 X94.809 Y131.696 E14.509
G1 X92.032 Y131.696 E14.60136
G1 X91.264 Y131.656 E14.62694
G1 X90.504 Y131.537 E14.65252
G1 X89.798 Y131.351 E14.67681
G1 X89.738 Y131.332 E14.6789
G1 X89.018 Y131.062 E14.70448
G1 X88.329 Y130.718 E14.73009
G1 X87.782 Y130.377 E14.75153
G1 X86.45 Y129.462 E14.80528
G1 X86.146 Y129.241 E14.81778
G1 X84.852 Y128.252 E14.87195
G1 X84.568 Y128.023 E14.88408
G1 X83.285 Y126.938 E14.93997
G1 X83.017 Y126.701 E14.95187
G1 X81.85 Y125.613 E15.00493
G1 X81.578 Y125.346 E15.01761
G1 X80.412 Y124.141 E15.07338
G1 X80.418 Y124.135 E15.07366
G1 X80.159 Y123.869 E15.08601
G1 X79.108 Y122.671 E15.13902
G1 X78.87 Y122.386 E15.15137
G1 X77.845 Y121.092 E15.20627
G1 X77.623 Y120.796 E15.21858
G1 X76.653 Y119.437 E15.27411
G1 X76.455 Y119.145 E15.28585
G1 X75.583 Y117.791 E15.33941
G1 X75.388 Y117.472 E15.35185
G1 X74.57 Y116.049 E15.40644
G1 X74.392 Y115.719 E15.41891
G1 X73.648 Y114.258 E15.47344
G1 X73.492 Y113.932 E15.48546
G1 X72.821 Y112.438 E15.53993
G1 X72.678 Y112.099 E15.55217
G1 X72.069 Y110.54 E15.60784
G1 X71.943 Y110.191 E15.62018
G1 X71.434 Y108.667 E15.67362
G1 X71.327 Y108.318 E15.68576
G1 X70.885 Y106.739 E15.7403
G1 X70.795 Y106.383 E15.75251
G1 X70.432 Y104.785 E15.80701
G1 X70.359 Y104.422 E15.81933
G1 X70.076 Y102.805 E15.87393
G1 X70.021 Y102.437 E15.8863
G1 X69.816 Y100.778 E15.9419
G1 X69.781 Y100.422 E15.9538
G1 X69.662 Y98.83 E16.0069
G1 X69.643 Y98.463 E16.01912
G1 X69.602 Y96.825 E16.07362
G1 X69.602 Y96.456 E16.08589
G1 X69.643 Y94.807 E16.14075
G1 X69.661 Y94.441 E16.15294
G1 X69.782 Y92.817 E16.20711
G1 X69.819 Y92.448 E16.21944
G1 X70.023 Y90.818 E16.27408
G1 X70.077 Y90.459 E16.28615
G1 X70.36 Y88.845 E16.34065
G1 X70.434 Y88.479 E16.35307
G1 X70.798 Y86.881 E16.40758
G1 X70.887 Y86.528 E16.41969
G1 X71.33 Y84.947 E16.4743
G1 X71.438 Y84.597 E16.48648
G1 X71.961 Y83.033 E16.54133
G1 X72.088 Y82.682 E16.55375
G1 X72.682 Y81.165 E16.60793
G1 X72.824 Y80.829 E16.62007
G1 X73.496 Y79.334 E16.67458
G1 X73.651 Y79.01 E16.68653
G1 X74.396 Y77.547 E16.74113
G1 X74.577 Y77.213 E16.75377
G1 X75.394 Y75.794 E16.80823
G1 X75.585 Y75.481 E16.82043
G1 X76.474 Y74.1 E16.87505
G1 X76.678 Y73.799 E16.88715
G1 X77.631 Y72.467 E16.94162
G1 X77.848 Y72.178 E16.95364
G1 X78.873 Y70.884 E17.00854
G1 X79.112 Y70.598 E17.02094
G1 X80.181 Y69.38 E17.07484
G0 F6000 X80.482 Y69.644
G1 F1200 X80.733 Y69.386 E17.08681
G1 X80.727 Y69.38 E17.0871
G1 X81.875 Y68.197 E17.14192
