;FLAVOR:Marlin
;TIME:12116
;Filament used: 7.44868m
;Layer height: 0.16
;MINX:72.776
;MINY:29.667
;MINZ:0.2
;MAXX:147.947
;MAXY:99.164
;MAXZ:9.96
;Generated with Cura_SteamEngine 4.12.1
M140 S60
M105
M190 S60
M104 S200
M105
M109 S200
M82 ;absolute extrusion mode
; Ender 3 Custom Start G-code
G92 E0 ; Reset Extruder
G28 ; Home all axes
G1 Z2.0 F3000 ; Move Z Axis up little to prevent scratching of Heat Bed
G1 X0.1 Y20 Z0.3 F5000.0 ; Move to start position
G1 X0.1 Y200.0 Z0.3 F1500.0 E15 ; Draw the first line
G1 X0.4 Y200.0 Z0.3 F5000.0 ; Move to side a little
G1 X0.4 Y20 Z0.3 F1500.0 E30 ; Draw the second line
G92 E0 ; Reset Extruder
G1 Z2.0 F3000 ; Move Z Axis up little to prevent scratching of Heat Bed
G1 X5 Y20 Z0.3 F5000.0 ; Move over to prevent blob squish
G92 E0
G92 E0
G1 F1500 E-6.2
;LAYER_COUNT:55
;LAYER:0
M107
G0 F6000 X79.225 Y45.738 Z0.2
;TYPE:SKIRT
G1 F1500 E0
G1 F1200 X79.302 Y45.613 E0.00488
G1 X80.174 Y44.259 E0.05845
G1 X80.256 Y44.137 E0.06334
G1 X81.209 Y42.805 E0.11781
G1 X81.299 Y42.686 E0.12277
G1 X82.345 Y41.368 E0.17874
G1 X82.44 Y41.254 E0.18367
G1 X83.488 Y40.06 E0.23651
G1 X84.746 Y38.761 E0.29666
G1 X84.853 Y38.656 E0.30164
G1 X86.044 Y37.545 E0.35582
G1 X86.156 Y37.446 E0.36079
G1 X87.441 Y36.362 E0.4167
G1 X87.556 Y36.269 E0.42162
G1 X88.828 Y35.299 E0.47483
G1 X88.949 Y35.212 E0.47978
G1 X90.274 Y34.302 E0.53325
G1 X90.698 Y34.059 E0.5495
G1 X91.066 Y33.915 E0.56264
G1 X91.126 Y33.896 E0.56474
G1 X91.603 Y33.787 E0.58101
G1 X92.032 Y33.756 E0.59532
G1 X98.001 Y33.756 E0.79385
G1 X98.001 Y33.604 E0.7989
G1 X98.02 Y33.267 E0.81013
G1 X98.105 Y32.803 E0.82582
G1 X98.193 Y32.473 E0.83718
G1 X98.409 Y31.904 E0.85742
G1 X98.428 Y31.866 E0.85883
G1 X98.708 Y31.412 E0.87657
G1 X98.909 Y31.143 E0.88774
G1 X99.382 Y30.642 E0.91066
G1 X99.407 Y30.621 E0.91175
G1 X99.734 Y30.382 E0.92522
G1 X100.006 Y30.21 E0.93592
G1 X100.427 Y29.989 E0.95174
G1 X100.455 Y29.977 E0.95275
G1 X100.985 Y29.806 E0.97127
G1 X101.277 Y29.741 E0.98122
G1 X101.679 Y29.679 E0.99475
G1 X101.951 Y29.667 E1.00381
G1 X118.057 Y29.667 E1.53949
G1 X118.405 Y29.687 E1.55109
G1 X118.835 Y29.765 E1.56562
G1 X119.164 Y29.85 E1.57692
G1 X119.756 Y30.072 E1.59795
G1 X119.794 Y30.091 E1.59937
G1 X120.242 Y30.367 E1.61687
G1 X120.515 Y30.57 E1.62818
G1 X120.916 Y30.928 E1.64606
G1 X120.945 Y30.959 E1.64747
G1 X121.313 Y31.442 E1.66767
G1 X121.488 Y31.728 E1.67882
G1 X121.738 Y32.241 E1.6978
G1 X121.75 Y32.273 E1.69894
G1 X121.874 Y32.694 E1.71354
G1 X121.93 Y32.954 E1.72238
G1 X121.985 Y33.323 E1.73479
G1 X121.999 Y33.606 E1.74421
G1 X121.999 Y33.756 E1.7492
G1 X127.968 Y33.756 E1.94773
G1 X128.456 Y33.796 E1.96402
G1 X128.874 Y33.896 E1.97831
G1 X128.934 Y33.915 E1.98041
G1 X129.387 Y34.1 E1.99668
G1 X129.727 Y34.303 E2.00985
G1 X131.057 Y35.217 E2.06353
G1 X131.18 Y35.306 E2.06858
G1 X132.501 Y36.316 E2.12388
G1 X132.616 Y36.408 E2.12878
G1 X133.85 Y37.451 E2.18252
G1 X133.961 Y37.55 E2.18747
G1 X135.175 Y38.684 E2.24272
G1 X135.281 Y38.787 E2.24764
G1 X136.404 Y39.945 E2.30129
G1 X136.514 Y40.063 E2.30666
G1 X137.606 Y41.31 E2.36179
G1 X137.7 Y41.423 E2.36668
G1 X138.699 Y42.684 E2.42018
G1 X138.79 Y42.804 E2.42519
G1 X139.766 Y44.171 E2.48106
G1 X139.847 Y44.29 E2.48585
G1 X140.712 Y45.634 E2.53901
G1 X140.789 Y45.761 E2.54394
G1 X141.608 Y47.183 E2.59852
G1 X141.681 Y47.319 E2.60366
G1 X142.426 Y48.782 E2.65826
G1 X142.491 Y48.916 E2.66322
G1 X143.178 Y50.449 E2.71909
G1 X143.233 Y50.58 E2.72382
G1 X143.816 Y52.066 E2.77691
G1 X143.868 Y52.211 E2.78203
G1 X144.388 Y53.767 E2.8366
G1 X144.433 Y53.912 E2.84165
G1 X144.885 Y55.533 E2.89762
G1 X144.92 Y55.671 E2.90235
G1 X145.275 Y57.226 E2.9554
G1 X145.305 Y57.379 E2.96059
G1 X145.594 Y59.037 E3.01657
G1 X145.616 Y59.181 E3.02141
G1 X145.814 Y60.769 E3.07464
G1 X145.829 Y60.919 E3.07965
G1 X145.952 Y62.586 E3.13525
G1 X145.959 Y62.732 E3.14011
G1 X145.999 Y64.337 E3.19351
G1 X145.999 Y64.487 E3.1985
G1 X145.958 Y66.136 E3.25336
G1 X145.951 Y66.284 E3.25829
G1 X145.83 Y67.908 E3.31245
G1 X145.815 Y68.059 E3.3175
G1 X145.606 Y69.721 E3.37321
G1 X145.583 Y69.869 E3.37819
G1 X145.298 Y71.483 E3.43271
G1 X145.269 Y71.628 E3.43763
G1 X144.912 Y73.194 E3.49105
G1 X144.876 Y73.336 E3.49592
G1 X144.433 Y74.917 E3.55053
G1 X144.389 Y75.059 E3.55547
G1 X143.866 Y76.623 E3.61032
G1 X143.814 Y76.766 E3.61538
G1 X143.22 Y78.283 E3.66957
G1 X143.163 Y78.419 E3.67447
G1 X142.491 Y79.914 E3.72899
G1 X142.427 Y80.047 E3.7339
G1 X141.668 Y81.535 E3.78946
G1 X141.596 Y81.669 E3.79452
G1 X140.793 Y83.063 E3.84802
G1 X140.664 Y83.27 E3.85614
G1 X140.843 Y83.219 E3.86233
G1 X141.429 Y83.161 E3.88191
G1 X141.537 Y83.161 E3.8855
G1 X142.025 Y83.201 E3.90179
G1 X142.5 Y83.32 E3.91808
G1 X143.036 Y83.563 E3.93765
G1 X146.393 Y85.5 E4.06656
G1 X146.796 Y85.778 E4.08284
G1 X147.148 Y86.118 E4.09912
G1 X147.5 Y86.613 E4.11932
G1 X147.553 Y86.706 E4.12288
G1 X147.76 Y87.149 E4.13915
G1 X147.892 Y87.621 E4.15545
G1 X147.947 Y88.191 E4.17449
G1 X147.947 Y92.069 E4.30348
G1 X147.907 Y92.557 E4.31976
G1 X147.788 Y93.032 E4.33605
G1 X147.553 Y93.554 E4.35509
G1 X147.5 Y93.647 E4.35865
G1 X147.224 Y94.051 E4.37492
G1 X146.886 Y94.405 E4.3912
G1 X146.393 Y94.76 E4.41141
G1 X143.036 Y96.697 E4.54031
G1 X142.594 Y96.907 E4.55659
G1 X142.123 Y97.041 E4.57288
G1 X141.537 Y97.099 E4.59246
G1 X141.429 Y97.099 E4.59606
G1 X140.941 Y97.059 E4.61234
G1 X140.466 Y96.94 E4.62863
G1 X139.93 Y96.697 E4.6482
G1 X136.573 Y94.76 E4.77711
G1 X136.17 Y94.482 E4.79339
G1 X135.818 Y94.142 E4.80967
G1 X135.466 Y93.647 E4.82987
G1 X135.413 Y93.554 E4.83343
G1 X135.206 Y93.111 E4.8497
G1 X135.074 Y92.639 E4.866
G1 X135.019 Y92.069 E4.88504
G1 X135.019 Y90.294 E4.94408
G1 X133.956 Y91.285 E4.99242
G1 X133.844 Y91.384 E4.99739
G1 X132.559 Y92.468 E5.0533
G1 X132.443 Y92.561 E5.05825
G1 X131.171 Y93.53 E5.11143
G1 X131.051 Y93.617 E5.11636
G1 X129.726 Y94.527 E5.16983
G1 X129.302 Y94.77 E5.18608
G1 X128.934 Y94.914 E5.19922
G1 X128.874 Y94.933 E5.20132
G1 X128.397 Y95.042 E5.21759
G1 X127.968 Y95.073 E5.2319
G1 X121.999 Y95.073 E5.43043
G1 X121.996 Y95.348 E5.43957
G1 X121.995 Y95.372 E5.44037
G1 X121.921 Y95.922 E5.45883
G1 X121.857 Y96.199 E5.46829
G1 X121.701 Y96.684 E5.48523
G1 X121.688 Y96.715 E5.48635
G1 X121.459 Y97.155 E5.50285
G1 X121.29 Y97.423 E5.51338
G1 X121.036 Y97.768 E5.52763
G1 X121.013 Y97.795 E5.52881
G1 X120.51 Y98.264 E5.55169
G1 X120.228 Y98.472 E5.56334
G1 X119.759 Y98.756 E5.58158
G1 X119.722 Y98.774 E5.58295
G1 X119.185 Y98.974 E5.60201
G1 X118.871 Y99.058 E5.61282
G1 X118.283 Y99.154 E5.63263
G1 X118.048 Y99.163 E5.64045
G1 X101.955 Y99.164 E6.17571
G1 X101.607 Y99.144 E6.1873
G1 X101.197 Y99.071 E6.20115
G1 X100.862 Y98.987 E6.21264
G1 X100.308 Y98.788 E6.23222
G1 X100.27 Y98.77 E6.23362
G1 X99.775 Y98.474 E6.2528
G1 X99.494 Y98.267 E6.26441
G1 X99.001 Y97.811 E6.28675
G1 X98.976 Y97.782 E6.28802
G1 X98.673 Y97.363 E6.30522
G1 X98.493 Y97.062 E6.31688
G1 X98.283 Y96.636 E6.33268
G1 X98.269 Y96.601 E6.33393
G1 X98.112 Y96.075 E6.35219
G1 X98.061 Y95.82 E6.36084
G1 X98.019 Y95.545 E6.37009
G1 X98.001 Y95.215 E6.38108
G1 X98.001 Y95.073 E6.38581
G1 X92.032 Y95.073 E6.58434
G1 X91.544 Y95.033 E6.60062
G1 X91.126 Y94.933 E6.61492
G1 X91.066 Y94.914 E6.61701
G1 X90.613 Y94.729 E6.63329
G1 X90.273 Y94.526 E6.64646
G1 X88.943 Y93.612 E6.70013
G1 X88.821 Y93.524 E6.70513
G1 X87.5 Y92.515 E6.76042
G1 X87.383 Y92.421 E6.76541
G1 X86.13 Y91.361 E6.82
G1 X86.018 Y91.261 E6.82499
G1 X85.705 Y90.968 E6.83925
G1 X85.705 Y92.456 E6.88875
G1 X85.665 Y92.944 E6.90503
G1 X85.546 Y93.419 E6.92132
G1 X85.311 Y93.941 E6.94036
G1 X85.258 Y94.034 E6.94392
G1 X84.982 Y94.438 E6.96019
G1 X84.644 Y94.792 E6.97647
G1 X84.151 Y95.147 E6.99668
G1 X80.794 Y97.084 E7.12558
G1 X80.352 Y97.294 E7.14186
G1 X79.881 Y97.428 E7.15815
G1 X79.295 Y97.486 E7.17773
G1 X79.187 Y97.486 E7.18133
G1 X78.699 Y97.446 E7.19761
G1 X78.224 Y97.327 E7.2139
G1 X77.688 Y97.085 E7.23346
G1 X74.33 Y95.148 E7.36239
G1 X73.927 Y94.869 E7.3787
G1 X73.575 Y94.529 E7.39497
G1 X73.223 Y94.034 E7.41518
G1 X73.17 Y93.941 E7.41874
G1 X72.963 Y93.498 E7.435
G1 X72.831 Y93.026 E7.4513
G1 X72.776 Y92.456 E7.47035
G1 X72.776 Y88.578 E7.59933
G1 X72.816 Y88.09 E7.61562
G1 X72.935 Y87.615 E7.6319
G1 X73.17 Y87.093 E7.65094
G1 X73.223 Y87 E7.6545
G1 X73.499 Y86.596 E7.67078
G1 X73.837 Y86.242 E7.68706
G1 X74.33 Y85.886 E7.70728
G1 X77.688 Y83.949 E7.83622
G1 X78.131 Y83.74 E7.85251
G1 X78.601 Y83.606 E7.86876
G1 X79.187 Y83.548 E7.88835
G1 X79.529 Y83.567 E7.89974
G1 X79.264 Y83.155 E7.91604
G1 X79.187 Y83.029 E7.92095
G1 X78.385 Y81.634 E7.97447
G1 X78.312 Y81.5 E7.97954
G1 X77.573 Y80.048 E8.03373
G1 X77.509 Y79.914 E8.03867
G1 X76.822 Y78.381 E8.09454
G1 X76.767 Y78.249 E8.0993
G1 X76.184 Y76.762 E8.15242
G1 X76.131 Y76.617 E8.15756
G1 X75.598 Y75.02 E8.21355
G1 X75.555 Y74.878 E8.21849
G1 X75.122 Y73.33 E8.27195
G1 X75.086 Y73.187 E8.27686
G1 X74.723 Y71.589 E8.33136
G1 X74.692 Y71.439 E8.33645
G1 X74.405 Y69.791 E8.39209
G1 X74.384 Y69.647 E8.39693
G1 X74.185 Y68.051 E8.45043
G1 X74.17 Y67.9 E8.45547
G1 X74.048 Y66.243 E8.51073
G1 X74.041 Y66.098 E8.51556
G1 X74.001 Y64.493 E8.56896
G1 X74.001 Y64.343 E8.57395
G1 X74.042 Y62.694 E8.62881
G1 X74.049 Y62.546 E8.63374
G1 X74.17 Y60.922 E8.68791
G1 X74.185 Y60.771 E8.69295
G1 X74.394 Y59.108 E8.7487
G1 X74.417 Y58.96 E8.75368
G1 X74.702 Y57.346 E8.80819
G1 X74.731 Y57.201 E8.81311
G1 X75.088 Y55.636 E8.8665
G1 X75.124 Y55.494 E8.87137
G1 X75.567 Y53.913 E8.92598
G1 X75.611 Y53.771 E8.93093
G1 X76.134 Y52.207 E8.98578
G1 X76.186 Y52.064 E8.99084
G1 X76.78 Y50.547 E9.04502
G1 X76.837 Y50.411 E9.04993
G1 X77.509 Y48.916 E9.10445
G1 X77.572 Y48.785 E9.10928
G1 X78.317 Y47.322 E9.16389
G1 X78.391 Y47.184 E9.16909
G1 X79.225 Y45.738 E9.22461
G0 F6000 X79.572 Y45.938
G1 F1200 X79.638 Y45.829 E9.22885
G1 X80.51 Y44.475 E9.28242
G1 X80.581 Y44.37 E9.28663
G1 X81.534 Y43.038 E9.34111
G1 X81.612 Y42.935 E9.3454
G1 X82.658 Y41.617 E9.40137
G1 X82.741 Y41.518 E9.40567
G1 X83.789 Y40.324 E9.45851
G1 X85.033 Y39.039 E9.51799
G1 X85.125 Y38.949 E9.52227
G1 X86.316 Y37.838 E9.57644
G1 X86.414 Y37.752 E9.58078
G1 X87.699 Y36.668 E9.6367
G1 X87.798 Y36.588 E9.64093
G1 X89.07 Y35.618 E9.69413
G1 X89.175 Y35.542 E9.69845
G1 X90.5 Y34.632 E9.75191
G1 X90.897 Y34.408 E9.76707
G1 X91.187 Y34.296 E9.77741
G1 X91.247 Y34.277 E9.7795
G1 X91.692 Y34.178 E9.79466
G1 X92.032 Y34.156 E9.806
G1 X98.401 Y34.156 E10.01783
G1 X98.401 Y33.604 E10.03619
G1 X98.418 Y33.308 E10.04605
G1 X98.492 Y32.906 E10.05965
G1 X98.58 Y32.576 E10.07101
G1 X98.766 Y32.083 E10.08853
G1 X98.785 Y32.045 E10.08994
G1 X99.028 Y31.652 E10.10531
G1 X99.229 Y31.383 E10.11648
G1 X99.64 Y30.948 E10.13639
G1 X99.665 Y30.927 E10.13747
G1 X99.947 Y30.72 E10.14911
G1 X100.219 Y30.548 E10.15981
G1 X100.585 Y30.356 E10.17356
G1 X100.613 Y30.344 E10.17457
G1 X101.072 Y30.196 E10.19061
G1 X101.364 Y30.131 E10.20056
G1 X101.716 Y30.078 E10.2124
G1 X101.951 Y30.067 E10.22022
G1 X118.057 Y30.067 E10.75591
G1 X118.362 Y30.085 E10.76607
G1 X118.735 Y30.153 E10.77868
G1 X119.064 Y30.238 E10.78999
G1 X119.577 Y30.429 E10.80819
G1 X119.615 Y30.448 E10.80961
G1 X120.003 Y30.688 E10.82478
G1 X120.276 Y30.891 E10.8361
G1 X120.624 Y31.201 E10.8516
G1 X120.653 Y31.232 E10.85301
G1 X120.972 Y31.651 E10.87052
G1 X121.147 Y31.937 E10.88168
G1 X121.363 Y32.381 E10.8981
G1 X121.375 Y32.413 E10.89923
G1 X121.483 Y32.779 E10.91193
G1 X121.539 Y33.039 E10.92077
G1 X121.587 Y33.36 E10.93157
G1 X121.599 Y33.606 E10.93976
G1 X121.599 Y34.156 E10.95805
G1 X127.968 Y34.156 E11.16989
G1 X128.422 Y34.196 E11.18505
G1 X128.753 Y34.277 E11.19638
G1 X128.813 Y34.296 E11.19847
G1 X129.234 Y34.471 E11.21364
G1 X129.501 Y34.632 E11.22401
G1 X130.831 Y35.546 E11.27768
G1 X130.937 Y35.624 E11.28206
G1 X132.258 Y36.634 E11.33737
G1 X132.357 Y36.713 E11.34158
G1 X133.591 Y37.756 E11.39532
G1 X133.688 Y37.842 E11.39963
G1 X134.902 Y38.976 E11.45488
G1 X134.993 Y39.066 E11.45914
G1 X136.116 Y40.224 E11.51279
G1 X136.213 Y40.326 E11.51747
G1 X137.305 Y41.573 E11.5726
G1 X137.387 Y41.671 E11.57685
G1 X138.386 Y42.932 E11.63036
G1 X138.464 Y43.036 E11.63469
G1 X139.44 Y44.403 E11.69055
G1 X139.51 Y44.507 E11.69472
G1 X140.375 Y45.851 E11.74788
G1 X140.442 Y45.96 E11.75214
G1 X141.261 Y47.382 E11.80672
G1 X141.325 Y47.5 E11.81118
G1 X142.07 Y48.963 E11.86579
G1 X142.126 Y49.08 E11.8701
G1 X142.813 Y50.613 E11.92597
G1 X142.86 Y50.726 E11.93004
G1 X143.443 Y52.212 E11.98314
G1 X143.489 Y52.338 E11.9876
G1 X144.009 Y53.894 E12.04216
G1 X144.047 Y54.02 E12.04654
G1 X144.499 Y55.641 E12.10251
G1 X144.53 Y55.76 E12.1066
G1 X144.885 Y57.315 E12.15965
G1 X144.911 Y57.448 E12.16416
G1 X145.2 Y59.106 E12.22014
G1 X145.219 Y59.23 E12.22431
G1 X145.417 Y60.818 E12.27754
G1 X145.43 Y60.949 E12.28191
G1 X145.553 Y62.616 E12.33751
G1 X145.559 Y62.742 E12.3417
G1 X145.599 Y64.347 E12.3951
G1 X145.599 Y64.477 E12.39943
G1 X145.558 Y66.126 E12.45429
G1 X145.552 Y66.254 E12.45855
G1 X145.431 Y67.878 E12.51272
G1 X145.418 Y68.009 E12.5171
G1 X145.209 Y69.671 E12.57281
G1 X145.189 Y69.799 E12.57712
G1 X144.904 Y71.413 E12.63163
G1 X144.879 Y71.539 E12.6359
G1 X144.522 Y73.105 E12.68932
G1 X144.491 Y73.229 E12.69358
G1 X144.048 Y74.81 E12.74819
G1 X144.01 Y74.933 E12.75247
G1 X143.487 Y76.497 E12.80732
G1 X143.442 Y76.62 E12.81167
G1 X142.848 Y78.137 E12.86586
G1 X142.798 Y78.255 E12.87012
G1 X142.126 Y79.75 E12.92464
G1 X142.071 Y79.865 E12.92888
G1 X141.312 Y81.353 E12.98444
G1 X141.249 Y81.47 E12.98885
G1 X140.446 Y82.864 E13.04236
G1 X140.38 Y82.973 E13.0466
G1 X139.57 Y84.232 E13.09639
G1 X140.13 Y83.909 E13.11789
G1 X140.543 Y83.717 E13.13304
G1 X140.983 Y83.6 E13.14819
G1 X141.429 Y83.561 E13.16308
G1 X141.537 Y83.561 E13.16667
G1 X141.991 Y83.601 E13.18183
G1 X142.431 Y83.719 E13.19698
G1 X142.836 Y83.909 E13.21186
G1 X146.193 Y85.846 E13.34077
G1 X146.567 Y86.107 E13.35593
G1 X146.888 Y86.43 E13.37108
G1 X147.153 Y86.811 E13.38652
G1 X147.206 Y86.904 E13.39008
G1 X147.396 Y87.318 E13.40523
G1 X147.511 Y87.759 E13.42039
G1 X147.547 Y88.191 E13.4348
G1 X147.547 Y92.069 E13.56379
G1 X147.507 Y92.523 E13.57894
G1 X147.389 Y92.963 E13.5941
G1 X147.206 Y93.356 E13.60852
G1 X147.153 Y93.449 E13.61208
G1 X146.894 Y93.824 E13.62723
G1 X146.573 Y94.147 E13.64238
G1 X146.193 Y94.414 E13.65783
G1 X142.836 Y96.351 E13.78673
G1 X142.423 Y96.543 E13.80188
G1 X141.983 Y96.66 E13.81703
G1 X141.537 Y96.699 E13.83192
G1 X141.429 Y96.699 E13.83551
G1 X140.975 Y96.659 E13.85067
G1 X140.535 Y96.541 E13.86582
G1 X140.13 Y96.351 E13.8807
G1 X136.773 Y94.414 E14.00961
G1 X136.399 Y94.153 E14.02477
G1 X136.078 Y93.83 E14.03992
G1 X135.813 Y93.449 E14.05536
G1 X135.76 Y93.356 E14.05892
G1 X135.57 Y92.942 E14.07407
G1 X135.455 Y92.501 E14.08923
G1 X135.419 Y92.069 E14.10364
G1 X135.419 Y89.326 E14.19488
G1 X134.974 Y89.784 E14.21612
G1 X134.882 Y89.875 E14.22042
G1 X133.683 Y90.993 E14.27494
G1 X133.586 Y91.078 E14.27923
G1 X132.301 Y92.162 E14.33515
G1 X132.201 Y92.243 E14.33943
G1 X130.929 Y93.212 E14.39261
G1 X130.825 Y93.287 E14.39688
G1 X129.5 Y94.197 E14.45034
G1 X129.103 Y94.421 E14.4655
G1 X128.813 Y94.533 E14.47584
G1 X128.753 Y94.552 E14.47794
G1 X128.308 Y94.651 E14.4931
G1 X127.968 Y94.673 E14.50443
G1 X121.599 Y94.673 E14.71626
G1 X121.599 Y95.224 E14.73459
G1 X121.596 Y95.355 E14.73895
G1 X121.531 Y95.832 E14.75496
G1 X121.467 Y96.109 E14.76442
G1 X121.332 Y96.529 E14.77909
G1 X121.319 Y96.56 E14.78021
G1 X121.12 Y96.942 E14.79453
G1 X120.951 Y97.21 E14.80507
G1 X120.731 Y97.509 E14.81742
G1 X120.708 Y97.536 E14.8186
G1 X120.272 Y97.942 E14.83841
G1 X119.99 Y98.15 E14.85007
G1 X119.584 Y98.396 E14.86586
G1 X119.547 Y98.414 E14.86722
G1 X119.082 Y98.588 E14.88374
G1 X118.768 Y98.672 E14.89455
G1 X118.258 Y98.755 E14.91174
G1 X118.048 Y98.763 E14.91872
G1 X101.955 Y98.764 E15.45398
G1 X101.65 Y98.746 E15.46414
G1 X101.295 Y98.683 E15.47613
G1 X100.96 Y98.599 E15.48762
G1 X100.479 Y98.427 E15.50461
G1 X100.441 Y98.409 E15.50601
G1 X100.012 Y98.152 E15.52264
G1 X99.731 Y97.945 E15.53425
G1 X99.304 Y97.55 E15.5536
G1 X99.279 Y97.521 E15.55487
